; generated by Slic3r 0.9.8 on 2013-03-27 at 22:15:44

; layer_height = 0.1
; perimeters = 3
; top_solid_layers = 3
; bottom_solid_layers = 3
; fill_density = 0.7
; perimeter_speed = 30
; infill_speed = 60
; travel_speed = 130
; scale = 1
; nozzle_diameter = 0.5
; filament_diameter = 3
; extrusion_multiplier = 1
; perimeters extrusion width = 0.80mm
; infill extrusion width = 0.80mm
; support material extrusion width = 0.80mm
; first layer extrusion width = 0.20mm

M107
M190 S67 ; wait for bed temperature to be reached
M104 S185 ; set temperature

M109 S185 ; wait for temperature to be reached
G90 ; use absolute coordinates
G21 ; set units to millimeters
G92 E0
M82 ; use absolute distances for extrusion
G1 F1800.000 E-1.00000
G92 E0
G1 Z0.100 F7800.000
G1 X112.830 Y112.830
G1 F1800.000 E1.00000
G1 X112.450 Y113.180 F540.000 E1.00193
G1 X112.040 Y113.500 E1.00388
G1 X111.610 Y113.780 E1.00580
G1 X110.920 Y114.140 E1.00871
G1 X110.680 Y114.240 E1.00968
G1 X110.190 Y114.400 E1.01161
G1 X109.690 Y114.530 E1.01354
G1 X109.170 Y114.620 E1.01551
G1 X108.660 Y114.660 E1.01743
G1 X91.340 Y114.660 E1.08221
G1 X90.830 Y114.620 E1.08412
G1 X90.310 Y114.530 E1.08610
G1 X89.810 Y114.400 E1.08803
G1 X89.320 Y114.240 E1.08996
G1 X88.850 Y114.030 E1.09188
G1 X88.390 Y113.780 E1.09384
G1 X87.960 Y113.500 E1.09576
G1 X87.550 Y113.180 E1.09770
G1 X87.170 Y112.830 E1.09964
G1 X86.820 Y112.450 E1.10157
G1 X86.500 Y112.040 E1.10351
G1 X86.220 Y111.610 E1.10543
G1 X85.860 Y110.920 E1.10834
G1 X85.760 Y110.680 E1.10932
G1 X85.600 Y110.190 E1.11124
G1 X85.470 Y109.690 E1.11318
G1 X85.380 Y109.170 E1.11515
G1 X85.340 Y108.660 E1.11706
G1 X85.340 Y91.340 E1.18184
G1 X85.360 Y91.080 E1.18282
G1 X85.420 Y90.570 E1.18474
G1 X85.530 Y90.060 E1.18669
G1 X85.760 Y89.320 E1.18959
G1 X85.860 Y89.080 E1.19056
G1 X86.090 Y88.620 E1.19249
G1 X86.360 Y88.170 E1.19445
G1 X86.660 Y87.750 E1.19638
G1 X86.990 Y87.360 E1.19829
G1 X87.550 Y86.820 E1.20120
G1 X87.960 Y86.500 E1.20314
G1 X88.390 Y86.220 E1.20506
G1 X89.080 Y85.860 E1.20797
G1 X89.320 Y85.760 E1.20895
G1 X89.810 Y85.600 E1.21088
G1 X90.310 Y85.470 E1.21281
G1 X90.830 Y85.380 E1.21478
G1 X91.340 Y85.340 E1.21669
G1 X108.660 Y85.340 E1.28148
G1 X109.170 Y85.380 E1.28339
G1 X109.690 Y85.470 E1.28536
G1 X110.190 Y85.600 E1.28729
G1 X110.680 Y85.760 E1.28922
G1 X111.150 Y85.970 E1.29115
G1 X111.610 Y86.220 E1.29311
G1 X112.040 Y86.500 E1.29503
G1 X112.450 Y86.820 E1.29697
G1 X112.830 Y87.170 E1.29890
G1 X113.180 Y87.550 E1.30084
G1 X113.500 Y87.960 E1.30278
G1 X113.780 Y88.390 E1.30470
G1 X114.140 Y89.080 E1.30761
G1 X114.240 Y89.320 E1.30858
G1 X114.400 Y89.810 E1.31051
G1 X114.530 Y90.310 E1.31244
G1 X114.620 Y90.830 E1.31442
G1 X114.660 Y91.340 E1.31633
G1 X114.660 Y108.660 E1.38111
G1 X114.620 Y109.170 E1.38302
G1 X114.530 Y109.690 E1.38500
G1 X114.400 Y110.190 E1.38693
G1 X114.240 Y110.680 E1.38886
G1 X114.030 Y111.150 E1.39078
G1 X113.780 Y111.610 E1.39274
G1 X113.500 Y112.040 E1.39466
G1 X113.180 Y112.450 E1.39661
G1 X112.857 Y112.801 E1.39839
G1 X112.830 Y112.830 E1.39854
G1 F1800.000 E0.39854
G92 E0
G1 X104.400 Y106.400 F7800.000
G1 F1800.000 E1.00000
G1 X104.400 Y93.600 F1080.000 E1.04787
G1 X101.900 Y93.600 F7800.000
G1 X101.900 Y95.900 F1080.000 E1.05648
G1 F1800.000 E0.05648
G92 E0
G1 X99.400 Y95.900 F7800.000
G1 F1800.000 E1.00000
G1 X99.400 Y93.600 F1080.000 E1.00860
G1 X96.900 Y93.600 F7800.000
G1 X96.900 Y95.900 F1080.000 E1.01721
G1 X94.400 Y93.600 F7800.000
G1 X94.400 Y106.400 F1080.000 E1.06508
G1 F1800.000 E0.06508
G92 E0
G1 X96.900 Y106.400 F7800.000
G1 F1800.000 E1.00000
G1 X96.900 Y104.100 F1080.000 E1.00860
G1 X99.400 Y104.100 F7800.000
G1 X99.400 Y106.400 F1080.000 E1.01721
G1 F1800.000 E0.01721
G92 E0
G1 X101.900 Y106.400 F7800.000
G1 F1800.000 E1.00000
G1 X101.900 Y104.100 F1080.000 E1.00860
G1 F1800.000 E0.00860
G92 E0
G1 X107.864 Y107.864 F7800.000
G1 F1800.000 E1.00000
G1 X92.136 Y107.864 F540.000 E1.05883
G1 X92.136 Y92.136 E1.11766
G1 X107.864 Y92.136 E1.17649
G1 X107.864 Y107.825 E1.23517
G1 X107.864 Y107.864 E1.23532
G1 X107.600 Y107.600 F7800.000
G1 X92.400 Y107.600 F540.000 E1.29217
G1 X92.400 Y92.400 E1.34902
G1 X107.600 Y92.400 E1.40587
G1 X107.600 Y107.560 E1.46257
G1 X107.600 Y107.600 E1.46272
G1 X107.600 Y107.864 F7800.000
G1 F1800.000 E0.46272
G92 E0
G1 X91.864 Y91.864 F7800.000
G1 F1800.000 E1.00000
G1 X108.136 Y91.864 F540.000 E1.06086
G1 X108.136 Y108.136 E1.12172
G1 X91.864 Y108.136 E1.18257
G1 X91.864 Y91.904 E1.24328
G1 X91.864 Y91.864 E1.24343
G1 X91.600 Y91.600 F7800.000
G1 X108.400 Y91.600 F540.000 E1.30627
G1 X108.400 Y108.400 E1.36910
G1 X91.600 Y108.400 E1.43194
G1 X91.600 Y91.640 E1.49463
G1 X91.600 Y91.600 E1.49477
G1 X91.829 Y91.732 F7800.000
G1 F1800.000 E0.49477
G92 E0
G1 X100.989 Y102.636 F7800.000
G1 F1800.000 E1.00000
G1 X100.989 Y100.989 F540.000 E1.00616
G1 X101.636 Y100.989 E1.00857
G1 X101.636 Y102.636 E1.01473
G1 X101.029 Y102.636 E1.01700
G1 X100.989 Y102.636 E1.01715
G1 F1800.000 E0.01715
G92 E0
G1 X98.364 Y100.989 F7800.000
G1 F1800.000 E1.00000
G1 X99.011 Y100.989 F540.000 E1.00242
G1 X99.011 Y102.636 E1.00857
G1 X98.364 Y102.636 E1.01099
G1 X98.364 Y101.029 E1.01700
G1 X98.364 Y100.989 E1.01715
G1 X98.100 Y100.970 F7800.000
G1 X97.965 Y100.725 F540.000 E1.01819
G1 X99.275 Y100.725 E1.02309
G1 X99.275 Y102.200 E1.02861
G1 X100.725 Y102.200 E1.03403
G1 X100.725 Y100.725 E1.03955
G1 X102.006 Y100.725 E1.04434
G1 X101.900 Y100.993 E1.04542
G1 X101.900 Y102.900 E1.05255
G1 X98.100 Y102.900 E1.06677
G1 X98.100 Y101.010 E1.07384
G1 X98.100 Y100.970 E1.07398
G1 X98.273 Y100.770 F7800.000
G1 F1800.000 E0.07398
G92 E0
G1 X101.636 Y97.364 F7800.000
G1 F1800.000 E1.00000
G1 X101.636 Y99.011 F540.000 E1.00616
G1 X100.989 Y99.011 E1.00857
G1 X100.989 Y97.364 E1.01473
G1 X101.596 Y97.364 E1.01700
G1 X101.636 Y97.364 E1.01715
G1 F1800.000 E0.01715
G92 E0
G1 X98.364 Y97.364 F7800.000
G1 F1800.000 E1.00000
G1 X99.011 Y97.364 F540.000 E1.00242
G1 X99.011 Y99.011 E1.00857
G1 X98.364 Y99.011 E1.01099
G1 X98.364 Y97.404 E1.01700
G1 X98.364 Y97.364 E1.01715
G1 X98.100 Y97.100 F7800.000
G1 X101.900 Y97.100 F540.000 E1.03136
G1 X101.900 Y99.007 E1.03849
G1 X102.006 Y99.275 E1.03957
G1 X100.725 Y99.275 E1.04436
G1 X100.725 Y97.800 E1.04988
G1 X99.275 Y97.800 E1.05530
G1 X99.275 Y99.275 E1.06082
G1 X97.965 Y99.275 E1.06572
G1 X98.100 Y99.030 E1.06677
G1 X98.100 Y97.140 E1.07384
G1 X98.100 Y97.100 E1.07398
G1 X98.329 Y97.232 F7800.000
G1 F1800.000 E0.07398
G92 E0
G1 X102.167 Y100.000 F7800.000
G1 F1800.000 E1.00000
G1 X102.127 Y100.577 F540.000 E1.00216
G1 X102.167 Y100.000 F7800.000
G1 X102.154 Y99.808 F540.000 E1.00288
G1 X102.141 Y99.615 E1.00360
G1 X102.153 Y99.491 E1.00407
G1 F1800.000 E0.00407
G92 E0
G1 X97.830 Y99.506 F7800.000
G1 F1800.000 E1.00000
G1 X97.814 Y100.047 F540.000 E1.00203
G1 X97.857 Y100.487 E1.00368
G1 X97.872 Y100.575 E1.00401
G1 F1800.000 E0.00401
G92 E0
G1 X99.402 Y102.727 F7800.000
G1 F1800.000 E1.00000
G1 X99.184 Y102.509 F360.000 E1.00160
G1 X99.565 Y102.373 E1.00369
G1 X99.919 Y102.727 E1.00628
G1 X100.081 Y102.373 E1.00829
G1 X100.435 Y102.727 E1.01088
G1 X100.598 Y102.373 E1.01289
G1 X100.816 Y102.591 E1.01449
G1 F1800.000 E0.01449
G92 E0
G1 X98.756 Y102.463 F7800.000
G1 F1800.000 E1.00000
G1 X98.537 Y102.244 F360.000 E1.00180
G1 X98.838 Y101.963 E1.00419
G1 X98.537 Y101.662 E1.00667
G1 X98.838 Y101.381 E1.00906
G1 X98.619 Y101.162 E1.01086
G1 F1800.000 E0.01086
G92 E0
G1 X101.381 Y102.463 F7800.000
G1 F1800.000 E1.00000
G1 X101.162 Y102.244 F360.000 E1.00180
G1 X101.463 Y101.963 E1.00419
G1 X101.162 Y101.662 E1.00667
G1 X101.463 Y101.381 E1.00906
G1 X101.244 Y101.162 E1.01086
G1 F1800.000 E0.01086
G92 E0
G1 X101.381 Y98.838 F7800.000
G1 F1800.000 E1.00000
G1 X101.162 Y98.619 F360.000 E1.00180
G1 X101.463 Y98.338 E1.00419
G1 X101.162 Y98.037 E1.00667
G1 X101.463 Y97.756 E1.00906
G1 X101.244 Y97.537 E1.01086
G1 X99.402 Y97.627 F7800.000
G1 X99.184 Y97.409 F360.000 E1.01246
G1 X99.565 Y97.273 E1.01455
G1 X99.919 Y97.627 E1.01713
G1 X100.081 Y97.273 E1.01915
G1 X100.435 Y97.627 E1.02174
G1 X100.598 Y97.273 E1.02375
G1 X100.816 Y97.491 E1.02535
G1 F1800.000 E0.02535
G92 E0
G1 X98.756 Y98.838 F7800.000
G1 F1800.000 E1.00000
G1 X98.537 Y98.619 F360.000 E1.00180
G1 X98.838 Y98.338 E1.00419
G1 X98.537 Y98.037 E1.00667
G1 X98.838 Y97.756 E1.00906
G1 X98.619 Y97.537 E1.01086
M106 S255
M140 S58 ; set bed temperature
G1 F1800.000 E0.01086
G92 E0
G1 Z0.200 F7800.000
G1 X106.900 Y91.550
G1 F1800.000 E1.00000
G1 X106.900 Y108.450 F1155.290 E1.18615
G1 X104.400 Y108.450 E1.21368
G1 X104.400 Y91.550 E1.39983
G1 X101.900 Y91.550 E1.42736
G1 X101.900 Y108.450 E1.61351
G1 X99.400 Y108.450 E1.64104
G1 X99.400 Y91.550 E1.82719
G1 X96.900 Y91.550 E1.85472
G1 X96.900 Y108.450 E2.04087
G1 X94.400 Y108.450 E2.06840
G1 X94.400 Y91.550 E2.25455
G1 X91.900 Y91.550 E2.28208
G1 X91.900 Y108.450 E2.46823
G1 F1800.000 E1.46823
G92 E0
G1 X107.981 Y96.645 F7800.000
G1 F1800.000 E1.00000
G1 X107.926 Y107.926 F600.000 E1.12425
G1 X92.074 Y107.926 E1.29883
G1 X92.074 Y92.074 E1.47342
G1 X107.907 Y92.063 E1.64780
G1 X107.981 Y96.645 E1.69827
G1 F1800.000 E0.69827
G92 E0
G1 X101.422 Y97.596 F7800.000
G1 F1800.000 E1.00000
G1 X101.300 Y97.683 F600.000 E1.00165
G1 X101.304 Y98.084 F7800.000
G1 X101.300 Y97.683 F600.000 E1.00607
G1 X100.889 Y97.461 E1.01122
G1 X99.111 Y97.461 E1.03080
G1 X98.687 Y97.691 E1.03611
G1 X98.521 Y97.570 E1.03836
G1 X98.687 Y97.691 F7800.000
G1 X98.644 Y98.644 F600.000 E1.04887
G1 X98.453 Y98.873 E1.05215
G1 X98.224 Y99.017 E1.05514
G1 X98.644 Y98.644 F7800.000
G1 X98.822 Y98.822 F600.000 E1.05791
G1 X97.866 Y99.844 F7800.000
G1 X97.834 Y99.859 F600.000 E1.05831
G1 X97.834 Y100.141 E1.06142
G1 X98.084 Y100.774 F7800.000
G1 X98.688 Y101.312 F600.000 E1.07032
G1 X98.822 Y101.178 E1.07240
G1 X98.688 Y101.312 F7800.000
G1 X98.684 Y101.497 F600.000 E1.07444
G1 X98.679 Y102.165 E1.08180
G1 X98.473 Y102.499 E1.08612
G1 X98.705 Y102.319 F7800.000
G1 X99.531 Y102.558 F600.000 E1.09559
G1 X99.844 Y102.539 E1.09904
G1 X100.889 Y102.539 E1.11055
G1 X101.300 Y102.317 E1.11570
G1 X101.315 Y101.315 E1.12673
G1 X101.178 Y101.178 E1.12886
G1 X101.315 Y101.315 F7800.000
G1 X101.857 Y100.825 F600.000 E1.13691
G1 X102.186 Y100.124 F7800.000
G1 X102.161 Y99.856 F600.000 E1.13988
G1 X102.129 Y99.844 E1.14025
G1 X101.854 Y99.173 F7800.000
G1 X101.443 Y98.789 F600.000 E1.14645
G1 X101.315 Y98.685 E1.14826
G1 X101.178 Y98.822 F7800.000
G1 X101.304 Y98.084 F600.000 E1.15651
G1 F1800.000 E0.15651
G92 E0
G1 X101.300 Y102.317 F7800.000
G1 F1800.000 E1.00000
G1 X101.333 Y102.354 F600.000 E1.00055
G1 X101.422 Y102.404 E1.00167
G1 F1800.000 E0.00167
G92 E0
G1 Z0.300 F7800.000
G1 X91.900 Y108.450
G1 F1800.000 E1.00000
G1 X91.900 Y91.550 F1155.211 E1.18615
G1 X94.400 Y91.550 E1.21368
G1 X94.400 Y108.450 E1.39983
G1 X96.900 Y108.450 E1.42736
G1 X96.900 Y91.550 E1.61351
G1 X99.400 Y91.550 E1.64104
G1 X99.400 Y108.450 E1.82719
G1 X101.900 Y108.450 E1.85472
G1 X101.900 Y91.550 E2.04087
G1 X104.400 Y91.550 E2.06840
G1 X104.400 Y108.450 E2.25455
G1 X106.900 Y108.450 E2.28208
G1 X106.900 Y91.550 E2.46823
G1 F1800.000 E1.46823
G92 E0
G1 X107.981 Y96.645 F7800.000
G1 F1800.000 E1.00000
G1 X107.926 Y107.926 F600.000 E1.12425
G1 X92.074 Y107.926 E1.29883
G1 X92.074 Y92.074 E1.47342
G1 X107.907 Y92.063 E1.64780
G1 X107.981 Y96.645 E1.69827
G1 F1800.000 E0.69827
G92 E0
G1 X101.422 Y97.596 F7800.000
G1 F1800.000 E1.00000
G1 X101.300 Y97.683 F600.000 E1.00165
G1 X101.304 Y98.084 F7800.000
G1 X101.300 Y97.683 F600.000 E1.00607
G1 X100.889 Y97.461 E1.01122
G1 X99.111 Y97.461 E1.03080
G1 X98.686 Y97.691 E1.03612
G1 X98.524 Y97.573 E1.03833
G1 X98.686 Y97.691 F7800.000
G1 X98.644 Y98.644 F600.000 E1.04883
G1 X98.453 Y98.871 E1.05210
G1 X98.213 Y99.025 E1.05524
G1 X98.644 Y98.644 F7800.000
G1 X98.822 Y98.822 F600.000 E1.05802
G1 X97.866 Y99.844 F7800.000
G1 X97.834 Y99.859 F600.000 E1.05841
G1 X97.834 Y100.141 E1.06152
G1 X98.084 Y100.774 F7800.000
G1 X98.688 Y101.312 F600.000 E1.07042
G1 X98.822 Y101.178 E1.07250
G1 X98.688 Y101.312 F7800.000
G1 X98.684 Y101.497 F600.000 E1.07454
G1 X98.679 Y102.165 E1.08190
G1 X98.473 Y102.499 E1.08622
G1 X98.705 Y102.319 F7800.000
G1 X99.531 Y102.558 F600.000 E1.09569
G1 X99.844 Y102.539 E1.09914
G1 X100.889 Y102.539 E1.11065
G1 X101.300 Y102.317 E1.11580
G1 X101.315 Y101.315 E1.12683
G1 X101.178 Y101.178 E1.12897
G1 X101.315 Y101.315 F7800.000
G1 X101.857 Y100.825 F600.000 E1.13701
G1 X102.194 Y100.118 F7800.000
G1 X102.151 Y99.848 F600.000 E1.14002
G1 X102.139 Y99.844 E1.14017
G1 X101.852 Y99.172 F7800.000
G1 X101.443 Y98.789 F600.000 E1.14634
G1 X101.315 Y98.685 E1.14816
G1 X101.178 Y98.822 F7800.000
G1 X101.304 Y98.084 F600.000 E1.15640
G1 F1800.000 E0.15640
G92 E0
G1 X101.300 Y102.317 F7800.000
G1 F1800.000 E1.00000
G1 X101.333 Y102.354 F600.000 E1.00055
G1 X101.422 Y102.404 E1.00167
G1 F1800.000 E0.00167
G92 E0
G1 Z0.400 F7800.000
G1 X91.900 Y108.450
G1 F1800.000 E1.00000
G1 X91.900 Y91.550 F1153.500 E1.18615
G1 X94.400 Y91.550 E1.21368
G1 X94.400 Y108.450 E1.39983
G1 X96.900 Y108.450 E1.42736
G1 X96.900 Y91.550 E1.61351
G1 X99.400 Y91.550 E1.64104
G1 X99.400 Y108.450 E1.82719
G1 X101.900 Y108.450 E1.85472
G1 X101.900 Y91.550 E2.04087
G1 X104.400 Y91.550 E2.06840
G1 X104.400 Y108.450 E2.25455
G1 X106.900 Y108.450 E2.28208
G1 X106.900 Y91.550 E2.46823
G1 F1800.000 E1.46823
G92 E0
G1 X107.981 Y96.645 F7800.000
G1 F1800.000 E1.00000
G1 X107.926 Y107.926 F600.000 E1.12425
G1 X92.074 Y107.926 E1.29883
G1 X92.074 Y92.074 E1.47342
G1 X107.907 Y92.063 E1.64780
G1 X107.981 Y96.645 E1.69827
G1 F1800.000 E0.69827
G92 E0
G1 X101.422 Y97.596 F7800.000
G1 F1800.000 E1.00000
G1 X101.300 Y97.683 F600.000 E1.00165
G1 X101.304 Y98.084 F7800.000
G1 X101.300 Y97.683 F600.000 E1.00607
G1 X100.889 Y97.461 E1.01122
G1 X99.111 Y97.461 E1.03080
G1 X98.686 Y97.691 E1.03612
G1 X98.526 Y97.576 E1.03829
G1 X98.686 Y97.691 F7800.000
G1 X98.644 Y98.644 F600.000 E1.04879
G1 X98.453 Y98.870 E1.05205
G1 X98.203 Y99.033 E1.05534
G1 X98.644 Y98.644 F7800.000
G1 X98.822 Y98.822 F600.000 E1.05811
G1 X97.866 Y99.844 F7800.000
G1 X97.834 Y99.859 F600.000 E1.05851
G1 X97.834 Y100.141 E1.06162
G1 X98.084 Y100.774 F7800.000
G1 X98.688 Y101.312 F600.000 E1.07052
G1 X98.679 Y102.165 E1.07992
G1 X98.667 Y102.370 E1.08219
G1 X98.473 Y102.499 E1.08474
G1 X98.705 Y102.319 F7800.000
G1 X99.556 Y102.568 F600.000 E1.09450
G1 X100.000 Y102.577 E1.09940
G1 X100.889 Y102.539 E1.10920
G1 X101.300 Y102.317 E1.11434
G1 X101.315 Y101.315 E1.12538
G1 X101.178 Y101.178 E1.12751
G1 X101.315 Y101.315 F7800.000
G1 X101.443 Y101.211 F600.000 E1.12932
G1 X101.547 Y101.040 E1.13153
G1 X101.857 Y100.825 E1.13569
G1 X102.142 Y99.844 F7800.000
G1 X102.149 Y99.840 F600.000 E1.13578
G1 X101.850 Y99.170 F7800.000
G1 X101.443 Y98.789 F600.000 E1.14193
G1 X101.315 Y98.685 E1.14374
G1 X101.178 Y98.822 F7800.000
G1 X101.304 Y98.084 F600.000 E1.15198
G1 F1800.000 E0.15198
G92 E0
G1 X98.822 Y101.178 F7800.000
G1 F1800.000 E1.00000
G1 X98.688 Y101.312 F600.000 E1.00208
G1 F1800.000 E0.00208
G92 E0
G1 X101.300 Y102.317 F7800.000
G1 F1800.000 E1.00000
G1 X101.422 Y102.404 F600.000 E1.00165
G1 F1800.000 E0.00165
G92 E0
G1 Z0.500 F7800.000
G1 X91.900 Y108.450
G1 F1800.000 E1.00000
G1 X91.900 Y91.550 F1153.724 E1.18615
G1 X94.400 Y91.550 E1.21368
G1 X94.400 Y108.450 E1.39983
G1 X96.900 Y108.450 E1.42736
G1 X96.900 Y91.550 E1.61351
G1 X99.400 Y91.550 E1.64104
G1 X99.400 Y108.450 E1.82719
G1 X101.900 Y108.450 E1.85472
G1 X101.900 Y91.550 E2.04087
G1 X104.400 Y91.550 E2.06840
G1 X104.400 Y108.450 E2.25455
G1 X106.900 Y108.450 E2.28208
G1 X106.900 Y91.550 E2.46823
G1 F1800.000 E1.46823
G92 E0
G1 X107.981 Y96.645 F7800.000
G1 F1800.000 E1.00000
G1 X107.926 Y107.926 F600.000 E1.12425
G1 X92.074 Y107.926 E1.29883
G1 X92.074 Y92.074 E1.47342
G1 X107.907 Y92.063 E1.64780
G1 X107.981 Y96.645 E1.69827
G1 F1800.000 E0.69827
G92 E0
G1 X101.422 Y97.596 F7800.000
G1 F1800.000 E1.00000
G1 X101.300 Y97.683 F600.000 E1.00165
G1 X101.304 Y98.084 F7800.000
G1 X101.300 Y97.683 F600.000 E1.00607
G1 X100.889 Y97.461 E1.01122
