; generated by Slic3r 0.9.8 on 2013-03-28 at 16:21:31

; layer_height = 0.1
; perimeters = 3
; top_solid_layers = 50
; bottom_solid_layers = 3
; fill_density = 0.7
; perimeter_speed = 30
; infill_speed = 60
; travel_speed = 130
; scale = 1
; nozzle_diameter = 0.5
; filament_diameter = 3
; extrusion_multiplier = 1
; perimeters extrusion width = 0.80mm
; infill extrusion width = 0.80mm
; first layer extrusion width = 0.20mm

M107
M190 S67 ; wait for bed temperature to be reached
M104 S185 ; set temperature

M109 S185 ; wait for temperature to be reached
G90 ; use absolute coordinates
G21 ; set units to millimeters
G92 E0
M82 ; use absolute distances for extrusion
G1 F1800.000 E-1.00000
G92 E0
G1 Z0.100 F7800.000
G1 X162.830 Y162.830
G1 F1800.000 E1.00000
G1 X162.450 Y163.180 F540.000 E1.00193
G1 X162.040 Y163.500 E1.00388
G1 X161.610 Y163.780 E1.00580
G1 X160.920 Y164.140 E1.00871
G1 X160.680 Y164.240 E1.00968
G1 X160.190 Y164.400 E1.01161
G1 X159.690 Y164.530 E1.01354
G1 X159.170 Y164.620 E1.01551
G1 X158.660 Y164.660 E1.01743
G1 X141.340 Y164.660 E1.08221
G1 X140.830 Y164.620 E1.08412
G1 X140.310 Y164.530 E1.08610
G1 X139.810 Y164.400 E1.08803
G1 X139.320 Y164.240 E1.08996
G1 X138.850 Y164.030 E1.09188
G1 X138.390 Y163.780 E1.09384
G1 X137.960 Y163.500 E1.09576
G1 X137.550 Y163.180 E1.09770
G1 X137.170 Y162.830 E1.09964
G1 X136.820 Y162.450 E1.10157
G1 X136.500 Y162.040 E1.10351
G1 X136.220 Y161.610 E1.10543
G1 X135.860 Y160.920 E1.10834
G1 X135.760 Y160.680 E1.10932
G1 X135.600 Y160.190 E1.11124
G1 X135.470 Y159.690 E1.11318
G1 X135.380 Y159.170 E1.11515
G1 X135.340 Y158.660 E1.11706
G1 X135.340 Y141.340 E1.18184
G1 X135.360 Y141.080 E1.18282
G1 X135.420 Y140.570 E1.18474
G1 X135.530 Y140.060 E1.18669
G1 X135.760 Y139.320 E1.18959
G1 X135.860 Y139.080 E1.19056
G1 X136.090 Y138.620 E1.19249
G1 X136.360 Y138.170 E1.19445
G1 X136.660 Y137.750 E1.19638
G1 X136.990 Y137.360 E1.19829
G1 X137.550 Y136.820 E1.20120
G1 X137.960 Y136.500 E1.20314
G1 X138.390 Y136.220 E1.20506
G1 X139.080 Y135.860 E1.20797
G1 X139.320 Y135.760 E1.20895
G1 X139.810 Y135.600 E1.21088
G1 X140.310 Y135.470 E1.21281
G1 X140.830 Y135.380 E1.21478
G1 X141.340 Y135.340 E1.21669
G1 X158.660 Y135.340 E1.28148
G1 X159.170 Y135.380 E1.28339
G1 X159.690 Y135.470 E1.28536
G1 X160.190 Y135.600 E1.28729
G1 X160.680 Y135.760 E1.28922
G1 X161.150 Y135.970 E1.29115
G1 X161.610 Y136.220 E1.29311
G1 X162.040 Y136.500 E1.29503
G1 X162.450 Y136.820 E1.29697
G1 X162.830 Y137.170 E1.29890
G1 X163.180 Y137.550 E1.30084
G1 X163.500 Y137.960 E1.30278
G1 X163.780 Y138.390 E1.30470
G1 X164.140 Y139.080 E1.30761
G1 X164.240 Y139.320 E1.30858
G1 X164.400 Y139.810 E1.31051
G1 X164.530 Y140.310 E1.31244
G1 X164.620 Y140.830 E1.31442
G1 X164.660 Y141.340 E1.31633
G1 X164.660 Y158.660 E1.38111
G1 X164.620 Y159.170 E1.38302
G1 X164.530 Y159.690 E1.38500
G1 X164.400 Y160.190 E1.38693
G1 X164.240 Y160.680 E1.38886
G1 X164.030 Y161.150 E1.39078
G1 X163.780 Y161.610 E1.39274
G1 X163.500 Y162.040 E1.39466
G1 X163.180 Y162.450 E1.39661
G1 X162.857 Y162.801 E1.39839
G1 X162.830 Y162.830 E1.39854
G1 F1800.000 E0.39854
G92 E0
G1 X157.864 Y157.864 F7800.000
G1 F1800.000 E1.00000
G1 X142.136 Y157.864 F540.000 E1.05883
G1 X142.136 Y142.136 E1.11766
G1 X157.864 Y142.136 E1.17649
G1 X157.864 Y157.825 E1.23517
G1 X157.864 Y157.864 E1.23532
G1 X157.600 Y157.600 F7800.000
G1 X142.400 Y157.600 F540.000 E1.29217
G1 X142.400 Y142.400 E1.34902
G1 X157.600 Y142.400 E1.40587
G1 X157.600 Y157.560 E1.46257
G1 X157.600 Y157.600 E1.46272
G1 X157.600 Y157.864 F7800.000
G1 F1800.000 E0.46272
G92 E0
G1 X141.864 Y141.864 F7800.000
G1 F1800.000 E1.00000
G1 X158.136 Y141.864 F540.000 E1.06086
G1 X158.136 Y158.136 E1.12172
G1 X141.864 Y158.136 E1.18257
G1 X141.864 Y141.904 E1.24328
G1 X141.864 Y141.864 E1.24343
G1 X141.600 Y141.600 F7800.000
G1 X158.400 Y141.600 F540.000 E1.30627
G1 X158.400 Y158.400 E1.36910
G1 X141.600 Y158.400 E1.43194
G1 X141.600 Y141.640 E1.49463
G1 X141.600 Y141.600 E1.49477
G1 X141.829 Y141.732 F7800.000
G1 F1800.000 E0.49477
G92 E0
G1 X150.989 Y152.636 F7800.000
G1 F1800.000 E1.00000
G1 X150.989 Y150.989 F540.000 E1.00616
G1 X151.636 Y150.989 E1.00857
G1 X151.636 Y152.636 E1.01473
G1 X151.029 Y152.636 E1.01700
G1 X150.989 Y152.636 E1.01715
G1 F1800.000 E0.01715
G92 E0
G1 X149.011 Y150.989 F7800.000
G1 F1800.000 E1.00000
G1 X149.011 Y152.636 F540.000 E1.00616
G1 X148.364 Y152.636 E1.00857
G1 X148.364 Y150.989 E1.01473
G1 X148.971 Y150.989 E1.01700
G1 X149.011 Y150.989 E1.01715
G1 X149.275 Y150.725 F7800.000
G1 X149.275 Y152.200 F540.000 E1.02267
G1 X150.725 Y152.200 E1.02809
G1 X150.725 Y150.725 E1.03361
G1 X151.900 Y150.725 E1.03800
G1 X151.900 Y152.900 E1.04614
G1 X148.100 Y152.900 E1.06035
G1 X148.100 Y150.725 E1.06848
G1 X149.235 Y150.725 E1.07273
G1 X149.275 Y150.725 E1.07288
G1 X149.143 Y150.954 F7800.000
G1 F1800.000 E0.07288
G92 E0
G1 X150.989 Y149.011 F7800.000
G1 F1800.000 E1.00000
G1 X150.989 Y147.364 F540.000 E1.00616
G1 X151.636 Y147.364 E1.00857
G1 X151.636 Y149.011 E1.01473
G1 X151.029 Y149.011 E1.01700
G1 X150.989 Y149.011 E1.01715
G1 F1800.000 E0.01715
G92 E0
G1 X149.011 Y147.364 F7800.000
G1 F1800.000 E1.00000
G1 X149.011 Y149.011 F540.000 E1.00616
G1 X148.364 Y149.011 E1.00857
G1 X148.364 Y147.364 E1.01473
G1 X148.971 Y147.364 E1.01700
G1 X149.011 Y147.364 E1.01715
G1 X149.275 Y147.800 F7800.000
G1 X149.275 Y149.275 F540.000 E1.02267
G1 X148.100 Y149.275 E1.02706
G1 X148.100 Y147.100 E1.03520
G1 X151.900 Y147.100 E1.04941
G1 X151.900 Y149.275 E1.05754
G1 X150.725 Y149.275 E1.06194
G1 X150.725 Y147.800 E1.06745
G1 X149.315 Y147.800 E1.07273
G1 X149.275 Y147.800 E1.07288
G1 X149.011 Y147.800 F7800.000
G1 F1800.000 E0.07288
G92 E0
G1 X149.293 Y152.772 F7800.000
G1 F1800.000 E1.00000
G1 X149.293 Y152.328 F360.000 E1.00222
G1 X149.646 Y152.328 E1.00399
G1 X149.646 Y152.772 E1.00621
G1 X150.000 Y152.772 E1.00798
G1 X150.000 Y152.328 E1.01020
G1 X150.354 Y152.328 E1.01197
G1 X150.354 Y152.772 E1.01420
G1 X150.707 Y152.772 E1.01596
G1 X150.707 Y152.328 E1.01819
G1 F1800.000 E0.01819
G92 E0
G1 X148.647 Y152.508 F7800.000
G1 F1800.000 E1.00000
G1 X148.647 Y151.117 F360.000 E1.00675
G1 F1800.000 E0.00675
G92 E0
G1 X151.272 Y152.508 F7800.000
G1 F1800.000 E1.00000
G1 X151.272 Y151.117 F360.000 E1.00675
G1 F1800.000 E0.00675
G92 E0
G1 X151.272 Y148.883 F7800.000
G1 F1800.000 E1.00000
G1 X151.272 Y147.492 F360.000 E1.00675
G1 X149.293 Y147.672 F7800.000
G1 X149.293 Y147.228 F360.000 E1.00897
G1 X149.646 Y147.228 E1.01074
G1 X149.646 Y147.672 E1.01296
G1 X150.000 Y147.672 E1.01473
G1 X150.000 Y147.228 E1.01695
G1 X150.354 Y147.228 E1.01872
G1 X150.354 Y147.672 E1.02094
G1 X150.707 Y147.672 E1.02271
G1 X150.707 Y147.228 E1.02493
G1 F1800.000 E0.02493
G92 E0
G1 X148.647 Y148.883 F7800.000
G1 F1800.000 E1.00000
G1 X148.647 Y147.492 F360.000 E1.00675
M106 S255
M140 S58 ; set bed temperature
G1 F1800.000 E0.00675
G92 E0
G1 Z0.200 F7800.000
G1 X157.981 Y146.645
G1 F1800.000 E1.00000
G1 X157.926 Y157.926 F600.000 E1.12425
G1 X142.074 Y157.926 E1.29883
G1 X142.074 Y142.074 E1.47342
G1 X157.907 Y142.063 E1.64780
G1 X157.981 Y146.645 E1.69827
G1 F1800.000 E0.69827
G92 E0
G1 X151.425 Y147.594 F7800.000
G1 F1800.000 E1.00000
G1 X151.300 Y147.683 F600.000 E1.00170
G1 X151.304 Y148.084 F7800.000
G1 X151.300 Y147.683 F600.000 E1.00612
G1 X150.889 Y147.461 E1.01126
G1 X148.575 Y147.594 E1.03679
G1 X148.700 Y147.683 F7800.000
G1 X148.685 Y148.683 F600.000 E1.04780
G1 X148.516 Y148.879 E1.05065
G1 X148.685 Y148.683 F7800.000
G1 X148.859 Y148.870 F600.000 E1.05347
G1 F1800.000 E0.05347
G92 E0
G1 X148.859 Y151.130 F7800.000
G1 F1800.000 E1.00000
G1 X148.833 Y151.178 F600.000 E1.00060
G1 X148.685 Y151.317 E1.00284
G1 X148.516 Y151.121 F7800.000
G1 X148.678 Y151.615 F600.000 E1.00856
G1 X148.676 Y152.010 E1.01292
G1 X148.575 Y152.406 E1.01742
G1 X148.700 Y152.317 F7800.000
G1 X149.111 Y152.539 F600.000 E1.02257
G1 X150.000 Y152.577 E1.03237
G1 X150.889 Y152.539 E1.04217
G1 X151.300 Y152.317 E1.04731
G1 X151.315 Y151.317 E1.05832
G1 X151.141 Y151.130 E1.06114
G1 X151.315 Y151.317 F7800.000
G1 X151.484 Y151.121 F600.000 E1.06399
G1 X151.300 Y152.317 F7800.000
G1 X151.333 Y152.355 F600.000 E1.06455
G1 X151.425 Y152.406 E1.06571
G1 F1800.000 E0.06571
G92 E0
G1 X151.484 Y148.879 F7800.000
G1 F1800.000 E1.00000
G1 X151.315 Y148.683 F600.000 E1.00285
G1 X151.141 Y148.870 F7800.000
G1 X151.315 Y148.683 F600.000 E1.00567
G1 X151.304 Y148.084 E1.01226
G1 F1800.000 E0.01226
G92 E0
G1 Z0.300 F7800.000
G1 X157.981 Y146.645
G1 F1800.000 E1.00000
G1 X157.926 Y157.926 F600.000 E1.12425
G1 X142.074 Y157.926 E1.29883
G1 X142.074 Y142.074 E1.47342
G1 X157.907 Y142.063 E1.64780
G1 X157.981 Y146.645 E1.69827
G1 F1800.000 E0.69827
G92 E0
G1 X151.425 Y147.594 F7800.000
G1 F1800.000 E1.00000
G1 X151.300 Y147.683 F600.000 E1.00170
G1 X151.304 Y148.084 F7800.000
G1 X151.300 Y147.683 F600.000 E1.00612
G1 X150.889 Y147.461 E1.01126
G1 X148.575 Y147.594 E1.03679
G1 X148.700 Y147.683 F7800.000
G1 X148.685 Y148.683 F600.000 E1.04780
G1 X148.516 Y148.879 E1.05065
G1 X148.685 Y148.683 F7800.000
G1 X148.859 Y148.870 F600.000 E1.05347
G1 F1800.000 E0.05347
G92 E0
G1 X148.859 Y151.130 F7800.000
G1 F1800.000 E1.00000
G1 X148.833 Y151.178 F600.000 E1.00060
G1 X148.685 Y151.317 E1.00284
G1 X148.516 Y151.121 F7800.000
G1 X148.678 Y151.615 F600.000 E1.00856
G1 X148.676 Y152.010 E1.01292
G1 X148.575 Y152.406 E1.01742
G1 X148.700 Y152.317 F7800.000
G1 X149.111 Y152.539 F600.000 E1.02257
G1 X150.000 Y152.577 E1.03237
G1 X150.889 Y152.539 E1.04217
G1 X151.300 Y152.317 E1.04731
G1 X151.315 Y151.317 E1.05832
G1 X151.141 Y151.130 E1.06114
G1 X151.315 Y151.317 F7800.000
G1 X151.484 Y151.121 F600.000 E1.06399
G1 X151.300 Y152.317 F7800.000
G1 X151.333 Y152.355 F600.000 E1.06455
G1 X151.425 Y152.406 E1.06571
G1 F1800.000 E0.06571
G92 E0
G1 X151.484 Y148.879 F7800.000
G1 F1800.000 E1.00000
G1 X151.315 Y148.683 F600.000 E1.00285
G1 X151.141 Y148.870 F7800.000
G1 X151.315 Y148.683 F600.000 E1.00567
G1 X151.304 Y148.084 E1.01226
G1 F1800.000 E0.01226
G92 E0
G1 Z0.400 F7800.000
G1 X157.981 Y146.645
G1 F1800.000 E1.00000
G1 X157.926 Y157.926 F600.000 E1.12425
G1 X142.074 Y157.926 E1.29883
G1 X142.074 Y142.074 E1.47342
G1 X157.907 Y142.063 E1.64780
G1 X157.981 Y146.645 E1.69827
G1 F1800.000 E0.69827
G92 E0
G1 X151.425 Y147.594 F7800.000
G1 F1800.000 E1.00000
G1 X151.300 Y147.683 F600.000 E1.00170
G1 X151.304 Y148.084 F7800.000
G1 X151.300 Y147.683 F600.000 E1.00612
G1 X150.889 Y147.461 E1.01126
G1 X148.575 Y147.594 E1.03679
G1 X148.700 Y147.683 F7800.000
G1 X148.685 Y148.683 F600.000 E1.04780
G1 X148.516 Y148.879 E1.05065
G1 X148.685 Y148.683 F7800.000
G1 X148.859 Y148.870 F600.000 E1.05347
G1 F1800.000 E0.05347
G92 E0
G1 X148.859 Y151.130 F7800.000
G1 F1800.000 E1.00000
G1 X148.833 Y151.178 F600.000 E1.00060
G1 X148.685 Y151.317 E1.00284
G1 X148.516 Y151.121 F7800.000
G1 X148.678 Y151.615 F600.000 E1.00856
G1 X148.676 Y152.010 E1.01292
G1 X148.575 Y152.406 E1.01742
G1 X148.700 Y152.317 F7800.000
G1 X149.111 Y152.539 F600.000 E1.02257
G1 X150.000 Y152.577 E1.03237
G1 X150.889 Y152.539 E1.04217
G1 X151.300 Y152.317 E1.04731
G1 X151.315 Y151.317 E1.05832
G1 X151.141 Y151.130 E1.06114
G1 X151.315 Y151.317 F7800.000
G1 X151.484 Y151.121 F600.000 E1.06399
G1 X151.300 Y152.317 F7800.000
G1 X151.333 Y152.355 F600.000 E1.06455
G1 X151.425 Y152.406 E1.06571
G1 F1800.000 E0.06571
G92 E0
G1 X151.484 Y148.879 F7800.000
G1 F1800.000 E1.00000
G1 X151.315 Y148.683 F600.000 E1.00285
G1 X151.141 Y148.870 F7800.000
G1 X151.315 Y148.683 F600.000 E1.00567
G1 X151.304 Y148.084 E1.01226
G1 F1800.000 E0.01226
G92 E0
G1 Z0.500 F7800.000
G1 X157.981 Y146.645
G1 F1800.000 E1.00000
G1 X157.926 Y157.926 F600.000 E1.12425
G1 X142.074 Y157.926 E1.29883
G1 X142.074 Y142.074 E1.47342
G1 X157.907 Y142.063 E1.64780
G1 X157.981 Y146.645 E1.69827
G1 F1800.000 E0.69827
G92 E0
G1 X151.425 Y147.594 F7800.000
G1 F1800.000 E1.00000
G1 X151.300 Y147.683 F600.000 E1.00170
G1 X151.304 Y148.084 F7800.000
G1 X151.300 Y147.683 F600.000 E1.00612
G1 X150.889 Y147.461 E1.01126
G1 X148.575 Y147.594 E1.03679
G1 X148.700 Y147.683 F7800.000
G1 X148.685 Y148.683 F600.000 E1.04780
G1 X148.516 Y148.879 E1.05065
G1 X148.685 Y148.683 F7800.000
G1 X148.859 Y148.870 F600.000 E1.05347
G1 F1800.000 E0.05347
G92 E0
G1 X148.859 Y151.130 F7800.000
G1 F1800.000 E1.00000
G1 X148.833 Y151.178 F600.000 E1.00060
G1 X148.685 Y151.317 E1.00284
G1 X148.516 Y151.121 F7800.000
G1 X148.678 Y151.615 F600.000 E1.00856
G1 X148.676 Y152.010 E1.01292
G1 X148.575 Y152.406 E1.01742
G1 X148.700 Y152.317 F7800.000
G1 X149.111 Y152.539 F600.000 E1.02257
G1 X150.000 Y152.577 E1.03237
G1 X150.889 Y152.539 E1.04217
G1 X151.300 Y152.317 E1.04731
G1 X151.315 Y151.317 E1.05832
G1 X151.141 Y151.130 E1.06114
G1 X151.315 Y151.317 F7800.000
G1 X151.484 Y151.121 F600.000 E1.06399
G1 X151.300 Y152.317 F7800.000
G1 X151.333 Y152.355 F600.000 E1.06455
G1 X151.425 Y152.406 E1.06571
G1 F1800.000 E0.06571
G92 E0
G1 X151.484 Y148.879 F7800.000
G1 F1800.000 E1.00000
G1 X151.315 Y148.683 F600.000 E1.00285
G1 X151.141 Y148.870 F7800.000
G1 X151.315 Y148.683 F600.000 E1.00567
G1 X151.304 Y148.084 E1.01226
G1 F1800.000 E0.01226
G92 E0
G1 Z0.600 F7800.000
G1 X157.981 Y146.645
G1 F1800.000 E1.00000
G1 X157.926 Y157.926 F600.000 E1.12425
G1 X142.074 Y157.926 E1.29883
G1 X142.074 Y142.074 E1.47342
G1 X157.907 Y142.063 E1.64780
G1 X157.981 Y146.645 E1.69827
G1 F1800.000 E0.69827
G92 E0
G1 X151.425 Y147.594 F7800.000
G1 F1800.000 E1.00000
G1 X151.300 Y147.683 F600.000 E1.00170
G1 X151.304 Y148.084 F7800.000
G1 X151.300 Y147.683 F600.000 E1.00612
G1 X150.889 Y147.461 E1.01126
G1 X148.575 Y147.594 E1.03679
G1 X148.700 Y147.683 F7800.000
G1 X148.685 Y148.683 F600.000 E1.04780
G1 X148.516 Y148.879 E1.05065
G1 X148.685 Y148.683 F7800.000
G1 X148.859 Y148.870 F600.000 E1.05347
G1 F1800.000 E0.05347
G92 E0
G1 X148.859 Y151.130 F7800.000
G1 F1800.000 E1.00000
G1 X148.833 Y151.178 F600.000 E1.00060
G1 X148.685 Y151.317 E1.00284
G1 X148.516 Y151.121 F7800.000
G1 X148.678 Y151.615 F600.000 E1.00856
G1 X148.676 Y152.010 E1.01292
G1 X148.575 Y152.406 E1.01742
G1 X148.700 Y152.317 F7800.000
G1 X149.111 Y152.539 F600.000 E1.02257
G1 X150.000 Y152.577 E1.03237
G1 X150.889 Y152.539 E1.04217
G1 X151.300 Y152.317 E1.04731
G1 X151.315 Y151.317 E1.05832
G1 X151.141 Y151.130 E1.06114
G1 X151.315 Y151.317 F7800.000
G1 X151.484 Y151.121 F600.000 E1.06399
G1 X151.300 Y152.317 F7800.000
G1 X151.333 Y152.355 F600.000 E1.06455
G1 X151.425 Y152.406 E1.06571
G1 F1800.000 E0.06571
G92 E0
G1 X151.484 Y148.879 F7800.000
G1 F1800.000 E1.00000
G1 X151.315 Y148.683 F600.000 E1.00285
G1 X151.141 Y148.870 F7800.000
G1 X151.315 Y148.683 F600.000 E1.00567
G1 X151.304 Y148.084 E1.01226
G1 F1800.000 E0.01226
G92 E0
G1 Z0.700 F7800.000
G1 X157.981 Y146.645
G1 F1800.000 E1.00000
G1 X157.926 Y157.926 F600.000 E1.12425
G1 X142.074 Y157.926 E1.29883
G1 X142.074 Y142.074 E1.47342
G1 X157.907 Y142.063 E1.64780
G1 X157.981 Y146.645 E1.69827
G1 F1800.000 E0.69827
G92 E0
G1 X151.425 Y147.594 F7800.000
G1 F1800.000 E1.00000
G1 X151.300 Y147.683 F600.000 E1.00170
G1 X151.304 Y148.084 F7800.000
G1 X151.300 Y147.683 F600.000 E1.00612
G1 X150.889 Y147.461 E1.01126
G1 X148.575 Y147.594 E1.03679
G1 X148.700 Y147.683 F7800.000
G1 X148.685 Y148.683 F600.000 E1.04780
G1 X148.516 Y148.879 E1.05065
G1 X148.685 Y148.683 F7800.000
G1 X148.859 Y148.870 F600.000 E1.05347
G1 F1800.000 E0.05347
G92 E0
G1 X148.859 Y151.130 F7800.000
G1 F1800.000 E1.00000
G1 X148.833 Y151.178 F600.000 E1.00060
G1 X148.685 Y151.317 E1.00284
G1 X148.516 Y151.121 F7800.000
G1 X148.678 Y151.615 F600.000 E1.00856
G1 X148.676 Y152.010 E1.01292
G1 X148.575 Y152.406 E1.01742
G1 X148.700 Y152.317 F7800.000
G1 X149.111 Y152.539 F600.000 E1.02257
G1 X150.000 Y152.577 E1.03237
G1 X150.889 Y152.539 E1.04217
G1 X151.300 Y152.317 E1.04731
G1 X151.315 Y151.317 E1.05832
G1 X151.141 Y151.130 E1.06114
G1 X151.315 Y151.317 F7800.000
G1 X151.484 Y151.121 F600.000 E1.06399
G1 X151.300 Y152.317 F7800.000
G1 X151.333 Y152.355 F600.000 E1.06455
