; generated by Slic3r 0.9.8 on 2013-03-27 at 22:15:01

; layer_height = 0.2
; perimeters = 3
; top_solid_layers = 3
; bottom_solid_layers = 3
; fill_density = 0.7
; perimeter_speed = 30
; infill_speed = 60
; travel_speed = 130
; scale = 1
; nozzle_diameter = 0.5
; filament_diameter = 3
; extrusion_multiplier = 1
; perimeters extrusion width = 0.80mm
; infill extrusion width = 0.80mm
; support material extrusion width = 0.80mm
; first layer extrusion width = 0.40mm

M107
M190 S67 ; wait for bed temperature to be reached
M104 S185 ; set temperature

M109 S185 ; wait for temperature to be reached
G90 ; use absolute coordinates
G21 ; set units to millimeters
G92 E0
M82 ; use absolute distances for extrusion
G1 F1800.000 E-1.00000
G92 E0
G1 Z0.200 F7800.000
G1 X112.840 Y112.840
G1 F1800.000 E1.00000
G1 X112.450 Y113.200 F540.000 E1.00633
G1 X112.030 Y113.530 E1.01270
G1 X111.590 Y113.820 E1.01898
G1 X110.880 Y114.180 E1.02848
G1 X110.390 Y114.370 E1.03474
G1 X109.880 Y114.520 E1.04108
G1 X109.360 Y114.630 E1.04742
G1 X108.570 Y114.720 E1.05690
G1 X91.430 Y114.720 E1.26129
G1 X91.170 Y114.700 E1.26440
G1 X90.640 Y114.630 E1.27078
G1 X90.120 Y114.520 E1.27712
G1 X89.610 Y114.370 E1.28346
G1 X88.880 Y114.070 E1.29287
G1 X88.410 Y113.820 E1.29922
G1 X87.970 Y113.530 E1.30550
G1 X87.550 Y113.200 E1.31187
G1 X87.160 Y112.840 E1.31820
G1 X86.800 Y112.450 E1.32453
G1 X86.470 Y112.030 E1.33090
G1 X86.180 Y111.590 E1.33718
G1 X85.820 Y110.880 E1.34667
G1 X85.630 Y110.390 E1.35294
G1 X85.480 Y109.880 E1.35928
G1 X85.370 Y109.360 E1.36562
G1 X85.280 Y108.570 E1.37510
G1 X85.280 Y91.430 E1.57949
G1 X85.300 Y91.170 E1.58260
G1 X85.370 Y90.640 E1.58898
G1 X85.480 Y90.120 E1.59532
G1 X85.630 Y89.610 E1.60166
G1 X85.930 Y88.880 E1.61107
G1 X86.180 Y88.410 E1.61742
G1 X86.470 Y87.970 E1.62370
G1 X86.800 Y87.550 E1.63007
G1 X87.160 Y87.160 E1.63640
G1 X87.550 Y86.800 E1.64273
G1 X87.970 Y86.470 E1.64910
G1 X88.410 Y86.180 E1.65538
G1 X89.120 Y85.820 E1.66487
G1 X89.610 Y85.630 E1.67114
G1 X90.120 Y85.480 E1.67748
G1 X90.640 Y85.370 E1.68382
G1 X91.430 Y85.280 E1.69330
G1 X108.570 Y85.280 E1.89769
G1 X108.830 Y85.300 E1.90080
G1 X109.360 Y85.370 E1.90718
G1 X109.880 Y85.480 E1.91352
G1 X110.390 Y85.630 E1.91985
G1 X111.120 Y85.930 E1.92927
G1 X111.590 Y86.180 E1.93561
G1 X112.030 Y86.470 E1.94190
G1 X112.450 Y86.800 E1.94827
G1 X112.840 Y87.160 E1.95460
G1 X113.200 Y87.550 E1.96093
G1 X113.530 Y87.970 E1.96730
G1 X113.820 Y88.410 E1.97358
G1 X114.180 Y89.120 E1.98307
G1 X114.370 Y89.610 E1.98934
G1 X114.520 Y90.120 E1.99568
G1 X114.630 Y90.640 E2.00202
G1 X114.720 Y91.430 E2.01150
G1 X114.720 Y108.570 E2.21589
G1 X114.700 Y108.830 E2.21900
G1 X114.630 Y109.360 E2.22538
G1 X114.520 Y109.880 E2.23171
G1 X114.370 Y110.390 E2.23805
G1 X114.180 Y110.880 E2.24432
G1 X113.950 Y111.360 E2.25067
G1 X113.680 Y111.810 E2.25693
G1 X113.370 Y112.240 E2.26325
G1 X112.883 Y112.794 E2.27204
G1 X112.840 Y112.840 E2.27279
G1 F1800.000 E1.27279
G92 E0
G1 X104.400 Y106.500 F7800.000
G1 F1800.000 E1.00000
G1 X104.400 Y93.500 F1080.000 E1.15502
G1 X101.900 Y93.500 F7800.000
G1 X101.900 Y96.000 F1080.000 E1.18484
G1 F1800.000 E0.18484
G92 E0
G1 X99.400 Y96.000 F7800.000
G1 F1800.000 E1.00000
G1 X99.400 Y93.500 F1080.000 E1.02981
G1 X96.900 Y93.500 F7800.000
G1 X96.900 Y106.500 F1080.000 E1.18484
G1 F1800.000 E0.18484
G92 E0
G1 X94.400 Y106.500 F7800.000
G1 F1800.000 E1.00000
G1 X94.400 Y93.500 F1080.000 E1.15502
G1 F1800.000 E0.15502
G92 E0
G1 X99.400 Y104.000 F7800.000
G1 F1800.000 E1.00000
G1 X99.400 Y106.500 F1080.000 E1.02981
G1 F1800.000 E0.02981
G92 E0
G1 X101.900 Y106.500 F7800.000
G1 F1800.000 E1.00000
G1 X101.900 Y104.000 F1080.000 E1.02981
G1 F1800.000 E0.02981
G92 E0
G1 X107.700 Y107.700 F7800.000
G1 F1800.000 E1.00000
G1 X92.300 Y107.700 F540.000 E1.18364
G1 X92.300 Y92.300 E1.36729
G1 X107.700 Y92.300 E1.55093
G1 X107.700 Y107.637 E1.73382
G1 X107.700 Y107.700 E1.73457
G1 X107.700 Y108.121 F7800.000
G1 F1800.000 E0.73457
G92 E0
G1 X91.700 Y108.300 F7800.000
G1 F1800.000 E1.00000
G1 X91.700 Y91.700 F540.000 E1.19795
G1 X108.300 Y91.700 E1.39591
G1 X108.300 Y108.300 E1.59386
G1 X91.763 Y108.300 E1.79106
G1 X91.700 Y108.300 E1.79181
G1 F1800.000 E0.79181
G92 E0
G1 X98.200 Y102.800 F7800.000
G1 F1800.000 E1.00000
G1 X98.200 Y100.825 F540.000 E1.02355
G1 X99.175 Y100.825 E1.03518
G1 X99.175 Y102.300 E1.05277
G1 X100.825 Y102.300 E1.07244
G1 X100.825 Y100.825 E1.09003
G1 X101.800 Y100.825 E1.10166
G1 X101.800 Y102.800 E1.12521
G1 X98.263 Y102.800 E1.16739
G1 X98.200 Y102.800 E1.16814
G1 F1800.000 E0.16814
G92 E0
G1 X98.200 Y99.175 F7800.000
G1 F1800.000 E1.00000
G1 X98.200 Y97.200 F540.000 E1.02355
G1 X101.800 Y97.200 E1.06648
G1 X101.800 Y99.175 E1.09003
G1 X100.825 Y99.175 E1.10166
G1 X100.825 Y97.700 E1.11925
G1 X99.175 Y97.700 E1.13892
G1 X99.175 Y99.175 E1.15651
G1 X98.263 Y99.175 E1.16739
G1 X98.200 Y99.175 E1.16814
G1 F1800.000 E0.16814
G92 E0
G1 X102.130 Y100.006 F7800.000
G1 F1800.000 E1.00000
G1 X102.110 Y100.184 F540.000 E1.00214
G1 X102.130 Y100.006 F7800.000
G1 X102.121 Y99.826 F540.000 E1.00429
G1 X102.172 Y99.717 E1.00573
G1 X102.109 Y99.645 E1.00687
G1 F1800.000 E0.00687
G92 E0
G1 X97.875 Y99.650 F7800.000
G1 F1800.000 E1.00000
G1 X97.853 Y100.000 F540.000 E1.00418
G1 X97.841 Y100.188 E1.00643
G1 X97.848 Y100.548 E1.01072
G1 X97.944 Y100.721 E1.01308
G1 X98.745 Y102.523 F7800.000
G1 X98.477 Y102.255 F360.000 E1.01804
G1 X98.898 Y102.023 E1.02434
G1 X98.477 Y101.602 E1.03214
G1 X98.898 Y101.370 E1.03843
G1 X98.630 Y101.102 E1.04340
G1 F1800.000 E0.04340
G92 E0
G1 X101.370 Y102.523 F7800.000
G1 F1800.000 E1.00000
G1 X101.102 Y102.255 F360.000 E1.00496
G1 X101.523 Y102.023 E1.01126
G1 X101.102 Y101.602 E1.01906
G1 X101.523 Y101.370 E1.02535
G1 X101.255 Y101.102 E1.03032
G1 F1800.000 E0.03032
G92 E0
G1 X101.370 Y98.898 F7800.000
G1 F1800.000 E1.00000
G1 X101.102 Y98.630 F360.000 E1.00496
G1 X101.523 Y98.398 E1.01126
G1 X101.102 Y97.977 E1.01906
G1 X101.523 Y97.745 E1.02535
G1 X101.255 Y97.477 E1.03032
G1 F1800.000 E0.03032
G92 E0
G1 X98.745 Y98.898 F7800.000
G1 F1800.000 E1.00000
G1 X98.477 Y98.630 F360.000 E1.00496
G1 X98.898 Y98.398 E1.01126
G1 X98.477 Y97.977 E1.01906
G1 X98.898 Y97.745 E1.02535
G1 X98.630 Y97.477 E1.03032
M106 S255
M140 S58 ; set bed temperature
G1 F1800.000 E0.03032
G92 E0
G1 Z0.400 F7800.000
G1 X106.900 Y91.559
G1 F1800.000 E1.00000
G1 X106.900 Y108.441 F1154.630 E1.36162
G1 X104.400 Y108.441 E1.41517
G1 X104.400 Y91.559 E1.77678
G1 X101.900 Y91.559 E1.83034
G1 X101.900 Y108.441 E2.19195
G1 X99.400 Y108.441 E2.24550
G1 X99.400 Y91.559 E2.60712
G1 X96.900 Y91.559 E2.66067
G1 X96.900 Y108.441 E3.02229
G1 X94.400 Y108.441 E3.07584
G1 X94.400 Y91.559 E3.43746
G1 X91.900 Y91.559 E3.49101
G1 X91.900 Y108.441 E3.85262
G1 F1800.000 E2.85262
G92 E0
G1 X107.981 Y96.645 F7800.000
G1 F1800.000 E1.00000
G1 X107.926 Y107.926 F600.000 E1.24165
G1 X92.074 Y107.926 E1.58119
G1 X92.074 Y92.074 E1.92074
G1 X107.907 Y92.063 E2.25988
G1 X107.981 Y96.645 E2.35804
G1 F1800.000 E1.35804
G92 E0
G1 X101.422 Y97.596 F7800.000
G1 F1800.000 E1.00000
G1 X101.300 Y97.683 F600.000 E1.00321
G1 X101.304 Y98.084 F7800.000
G1 X101.300 Y97.683 F600.000 E1.01181
G1 X100.889 Y97.461 E1.02182
G1 X99.111 Y97.461 E1.05990
G1 X98.686 Y97.691 E1.07025
G1 X98.525 Y97.575 E1.07450
G1 X98.686 Y97.691 F7800.000
G1 X98.644 Y98.644 F600.000 E1.09493
G1 X98.453 Y98.871 E1.10128
G1 X98.208 Y99.029 E1.10753
G1 X98.644 Y98.644 F7800.000
G1 X98.822 Y98.822 F600.000 E1.11293
G1 X97.866 Y99.844 F7800.000
G1 X97.834 Y99.859 F600.000 E1.11370
G1 X97.834 Y100.141 E1.11974
G1 X98.084 Y100.774 F7800.000
G1 X98.688 Y101.312 F600.000 E1.13706
G1 X98.822 Y101.178 E1.14111
G1 X98.688 Y101.312 F7800.000
G1 X98.684 Y101.497 F600.000 E1.14507
G1 X98.679 Y102.165 E1.15938
G1 X98.473 Y102.499 E1.16778
G1 X98.705 Y102.319 F7800.000
G1 X99.531 Y102.558 F600.000 E1.18621
G1 X99.844 Y102.539 E1.19292
G1 X100.889 Y102.539 E1.21530
G1 X101.300 Y102.317 E1.22531
G1 X101.315 Y101.315 E1.24677
G1 X101.178 Y101.178 E1.25092
G1 X101.315 Y101.315 F7800.000
G1 X101.857 Y100.825 F600.000 E1.26657
G1 X102.198 Y100.115 F7800.000
G1 X102.146 Y99.845 F600.000 E1.27247
G1 X102.144 Y99.844 E1.27253
G1 X101.851 Y99.171 F7800.000
G1 X101.443 Y98.789 F600.000 E1.28451
G1 X101.315 Y98.685 E1.28803
G1 X101.178 Y98.822 F7800.000
G1 X101.304 Y98.084 F600.000 E1.30406
G1 F1800.000 E0.30406
G92 E0
G1 X101.300 Y102.317 F7800.000
G1 F1800.000 E1.00000
G1 X101.333 Y102.354 F600.000 E1.00107
G1 X101.422 Y102.404 E1.00325
G1 F1800.000 E0.00325
G92 E0
G1 Z0.600 F7800.000
G1 X91.900 Y108.441
G1 F1800.000 E1.00000
G1 X91.900 Y91.559 F1153.294 E1.36162
G1 X94.400 Y91.559 E1.41517
G1 X94.400 Y108.441 E1.77678
G1 X96.900 Y108.441 E1.83034
G1 X96.900 Y91.559 E2.19195
G1 X99.400 Y91.559 E2.24550
G1 X99.400 Y108.441 E2.60712
G1 X101.900 Y108.441 E2.66067
G1 X101.900 Y91.559 E3.02229
G1 X104.400 Y91.559 E3.07584
G1 X104.400 Y108.441 E3.43746
G1 X106.900 Y108.441 E3.49101
G1 X106.900 Y91.559 E3.85262
G1 F1800.000 E2.85262
G92 E0
G1 X107.981 Y96.645 F7800.000
G1 F1800.000 E1.00000
G1 X107.926 Y107.926 F600.000 E1.24165
G1 X92.074 Y107.926 E1.58119
G1 X92.074 Y92.074 E1.92074
G1 X107.907 Y92.063 E2.25988
G1 X107.981 Y96.645 E2.35804
G1 F1800.000 E1.35804
G92 E0
G1 X101.422 Y97.596 F7800.000
G1 F1800.000 E1.00000
G1 X101.300 Y97.683 F600.000 E1.00321
G1 X101.304 Y98.084 F7800.000
G1 X101.300 Y97.683 F600.000 E1.01181
G1 X100.889 Y97.461 E1.02182
G1 X99.111 Y97.461 E1.05990
G1 X98.685 Y97.691 E1.07027
G1 X98.530 Y97.580 E1.07436
G1 X98.685 Y97.691 F7800.000
G1 X98.643 Y98.643 F600.000 E1.09477
G1 X98.453 Y98.868 E1.10107
G1 X98.189 Y99.046 E1.10790
G1 X98.643 Y98.643 F7800.000
G1 X98.822 Y98.822 F600.000 E1.11330
G1 X97.866 Y99.844 F7800.000
G1 X97.834 Y99.859 F600.000 E1.11407
G1 X97.834 Y100.141 E1.12011
G1 X98.084 Y100.774 F7800.000
G1 X98.688 Y101.312 F600.000 E1.13743
G1 X98.679 Y102.165 E1.15571
G1 X98.667 Y102.370 E1.16012
G1 X98.473 Y102.499 E1.16509
G1 X98.705 Y102.319 F7800.000
G1 X99.556 Y102.568 F600.000 E1.18407
G1 X100.000 Y102.577 E1.19360
G1 X100.889 Y102.539 E1.21266
G1 X101.300 Y102.317 E1.22266
G1 X101.315 Y101.315 E1.24412
G1 X101.178 Y101.178 E1.24827
G1 X101.315 Y101.315 F7800.000
G1 X101.443 Y101.211 F600.000 E1.25180
G1 X101.547 Y101.040 E1.25609
G1 X101.857 Y100.825 E1.26417
G1 X102.129 Y99.844 F7800.000
G1 X102.165 Y99.824 F600.000 E1.26505
G1 X101.847 Y99.168 F7800.000
G1 X101.443 Y98.789 F600.000 E1.27692
G1 X101.315 Y98.685 E1.28045
G1 X101.178 Y98.822 F7800.000
G1 X101.304 Y98.084 F600.000 E1.29648
G1 F1800.000 E0.29648
G92 E0
G1 X98.822 Y101.178 F7800.000
G1 F1800.000 E1.00000
G1 X98.688 Y101.312 F600.000 E1.00405
G1 F1800.000 E0.00405
G92 E0
G1 X101.300 Y102.317 F7800.000
G1 F1800.000 E1.00000
G1 X101.422 Y102.404 F600.000 E1.00321
G1 F1800.000 E0.00321
G92 E0
G1 Z0.800 F7800.000
G1 X91.900 Y108.441
G1 F1800.000 E1.00000
G1 X91.900 Y91.559 F1152.995 E1.36162
G1 X94.400 Y91.559 E1.41517
G1 X94.400 Y108.441 E1.77678
G1 X96.900 Y108.441 E1.83034
G1 X96.900 Y91.559 E2.19195
G1 X99.400 Y91.559 E2.24550
G1 X99.400 Y108.441 E2.60712
G1 X101.900 Y108.441 E2.66067
G1 X101.900 Y91.559 E3.02229
G1 X104.400 Y91.559 E3.07584
G1 X104.400 Y108.441 E3.43746
G1 X106.900 Y108.441 E3.49101
G1 X106.900 Y91.559 E3.85262
G1 F1800.000 E2.85262
G92 E0
G1 X107.981 Y96.645 F7800.000
G1 F1800.000 E1.00000
G1 X107.926 Y107.926 F600.000 E1.24165
G1 X92.074 Y107.926 E1.58119
G1 X92.074 Y92.074 E1.92074
G1 X107.907 Y92.063 E2.25988
G1 X107.981 Y96.645 E2.35804
G1 F1800.000 E1.35804
G92 E0
G1 X102.184 Y99.804 F7800.000
G1 F1800.000 E1.00000
G1 X102.114 Y99.844 F600.000 E1.00173
G1 X101.843 Y99.165 F7800.000
G1 X101.443 Y98.789 F600.000 E1.01350
G1 X101.315 Y98.685 E1.01703
G1 X101.178 Y98.822 F7800.000
G1 X101.304 Y98.084 F600.000 E1.03306
G1 X101.300 Y97.683 E1.04165
G1 X100.889 Y97.461 E1.05166
G1 X98.535 Y97.586 E1.10214
G1 X98.684 Y97.692 F7800.000
G1 X98.643 Y98.643 F600.000 E1.12254
G1 X98.453 Y98.864 E1.12878
G1 X98.170 Y99.062 E1.13618
G1 X98.643 Y98.643 F7800.000
G1 X98.822 Y98.822 F600.000 E1.14159
G1 X97.866 Y99.844 F7800.000
G1 X97.834 Y99.859 F600.000 E1.14236
G1 X97.834 Y100.141 E1.14840
G1 X98.084 Y100.774 F7800.000
G1 X98.688 Y101.312 F600.000 E1.16572
G1 X98.679 Y102.165 E1.18400
G1 X98.667 Y102.370 E1.18840
G1 X98.473 Y102.499 E1.19338
G1 X98.705 Y102.319 F7800.000
G1 X99.556 Y102.568 F600.000 E1.21236
G1 X100.000 Y102.577 E1.22188
G1 X100.889 Y102.539 E1.24094
G1 X101.300 Y102.317 E1.25095
G1 X101.315 Y101.315 E1.27241
G1 X101.178 Y101.178 E1.27656
G1 X101.315 Y101.315 F7800.000
G1 X101.443 Y101.211 F600.000 E1.28008
G1 X101.547 Y101.040 E1.28438
G1 X101.857 Y100.825 E1.29246
G1 X101.300 Y102.317 F7800.000
G1 X101.422 Y102.404 F600.000 E1.29567
G1 F1800.000 E0.29567
G92 E0
G1 X98.822 Y101.178 F7800.000
G1 F1800.000 E1.00000
G1 X98.688 Y101.312 F600.000 E1.00405
G1 F1800.000 E0.00405
G92 E0
G1 X101.300 Y97.683 F7800.000
G1 F1800.000 E1.00000
G1 X101.422 Y97.596 F600.000 E1.00321
G1 F1800.000 E0.00321
G92 E0
G1 Z1.000 F7800.000
G1 X106.900 Y91.559
G1 F1800.000 E1.00000
G1 X106.900 Y108.441 F1151.994 E1.36162
G1 X104.400 Y108.441 E1.41517
G1 X104.400 Y91.559 E1.77678
G1 X101.900 Y91.559 E1.83034
G1 X101.900 Y108.441 E2.19195
G1 X99.400 Y108.441 E2.24550
G1 X99.400 Y91.559 E2.60712
G1 X96.900 Y91.559 E2.66067
G1 X96.900 Y108.441 E3.02229
G1 X94.400 Y108.441 E3.07584
G1 X94.400 Y91.559 E3.43746
G1 X91.900 Y91.559 E3.49101
G1 X91.900 Y108.441 E3.85262
G1 F1800.000 E2.85262
G92 E0
G1 X107.981 Y96.645 F7800.000
G1 F1800.000 E1.00000
G1 X107.926 Y107.926 F600.000 E1.24165
G1 X92.074 Y107.926 E1.58119
G1 X92.074 Y92.074 E1.92074
G1 X107.907 Y92.063 E2.25988
G1 X107.981 Y96.645 E2.35804
G1 F1800.000 E1.35804
G92 E0
G1 X101.422 Y97.596 F7800.000
G1 F1800.000 E1.00000
G1 X101.300 Y97.683 F600.000 E1.00321
G1 X101.304 Y98.084 F7800.000
G1 X101.300 Y97.683 F600.000 E1.01181
G1 X100.889 Y97.461 E1.02182
G1 X98.540 Y97.592 E1.07220
G1 X98.683 Y97.693 F7800.000
G1 X98.643 Y98.643 F600.000 E1.09257
G1 X98.453 Y98.859 E1.09874
G1 X98.153 Y99.079 E1.10671
G1 X98.643 Y98.643 F7800.000
G1 X98.822 Y98.822 F600.000 E1.11213
G1 X97.866 Y99.844 F7800.000
G1 X97.834 Y100.141 F600.000 E1.11853
G1 X98.084 Y100.774 F7800.000
G1 X98.688 Y101.312 F600.000 E1.13585
G1 X98.822 Y101.178 E1.13990
G1 X98.688 Y101.312 F7800.000
G1 X98.684 Y101.497 F600.000 E1.14386
G1 X98.679 Y102.165 E1.15817
G1 X98.473 Y102.499 E1.16658
G1 X98.705 Y102.319 F7800.000
G1 X99.111 Y102.539 F600.000 E1.17647
G1 X100.156 Y102.539 E1.19885
G1 X100.889 Y102.539 E1.21455
G1 X101.300 Y102.317 E1.22455
G1 X101.315 Y101.315 E1.24602
G1 X101.178 Y101.178 E1.25016
G1 X101.315 Y101.315 F7800.000
G1 X101.443 Y101.211 F600.000 E1.25369
G1 X101.857 Y100.825 E1.26582
G1 X101.300 Y102.317 F7800.000
G1 X101.422 Y102.404 F600.000 E1.26903
G1 F1800.000 E0.26903
G92 E0
G1 X101.839 Y99.163 F7800.000
G1 F1800.000 E1.00000
G1 X101.443 Y98.789 F600.000 E1.01167
G1 X101.315 Y98.685 E1.01519
G1 X101.178 Y98.822 F7800.000
G1 X101.304 Y98.084 F600.000 E1.03122
G1 F1800.000 E0.03122
G92 E0
G1 Z1.200 F7800.000
G1 X106.900 Y91.559
G1 F1800.000 E1.00000
G1 X106.900 Y108.441 F1152.303 E1.36162
G1 X104.400 Y108.441 E1.41517
G1 X104.400 Y91.559 E1.77678
G1 X101.900 Y91.559 E1.83034
G1 X101.900 Y108.441 E2.19195
G1 X99.400 Y108.441 E2.24550
G1 X99.400 Y91.559 E2.60712
G1 X96.900 Y91.559 E2.66067
G1 X96.900 Y108.441 E3.02229
G1 X94.400 Y108.441 E3.07584
G1 X94.400 Y91.559 E3.43746
G1 X91.900 Y91.559 E3.49101
G1 X91.900 Y108.441 E3.85262
G1 F1800.000 E2.85262
G92 E0
G1 X107.981 Y96.645 F7800.000
G1 F1800.000 E1.00000
G1 X107.926 Y107.926 F600.000 E1.24165
G1 X92.074 Y107.926 E1.58119
G1 X92.074 Y92.074 E1.92074
G1 X107.907 Y92.063 E2.25988
G1 X107.981 Y96.645 E2.35804
G1 F1800.000 E1.35804
G92 E0
G1 X101.857 Y99.175 F7800.000
G1 F1800.000 E1.00000
G1 X101.443 Y98.789 F600.000 E1.01213
G1 X101.315 Y98.685 E1.01566
G1 X101.178 Y98.822 F7800.000
G1 X101.304 Y98.084 F600.000 E1.03169
G1 X101.300 Y97.683 E1.04028
G1 X100.889 Y97.461 E1.05029
G1 X98.546 Y97.598 E1.10057
