; generated by Slic3r 0.9.9 on 2013-04-02 at 19:07:50

; layer_height = 0.3
; perimeters = 3
; top_solid_layers = 3
; bottom_solid_layers = 3
; fill_density = 0.2
; perimeter_speed = 30
; infill_speed = 60
; travel_speed = 130
; nozzle_diameter = 0.5
; filament_diameter = 3
; extrusion_multiplier = 1
; perimeters extrusion width = 0.70mm
; infill extrusion width = 0.70mm
; solid infill extrusion width = 0.70mm
; top infill extrusion width = 0.70mm
; first layer extrusion width = 0.60mm

G21 ; set units to millimeters
M107
M190 S67 ; wait for bed temperature to be reached
M104 S185 ; set temperature

M109 S185 ; wait for temperature to be reached
G90 ; use absolute coordinates
G92 E0
M82 ; use absolute distances for extrusion
G1 F1800.000 E-1.00000
G92 E0
G1 Z0.300 F7800.000
G1 X69.900 Y55.840
G1 F1800.000 E1.00000
G1 X70.260 Y55.440 F540.000 E1.01321
G1 X70.840 Y54.900 E1.03267
G1 X71.480 Y54.440 E1.05202
G1 X71.940 Y54.170 E1.06512
G1 X72.670 Y53.850 E1.08469
G1 X73.430 Y53.610 E1.10426
G1 X73.680 Y53.550 E1.11057
G1 X74.210 Y53.470 E1.12374
G1 X74.470 Y53.440 E1.13016
G1 X75.000 Y53.420 E1.14318
G1 X225.000 Y53.420 E4.82628
G1 X225.530 Y53.440 E4.83931
G1 X225.790 Y53.470 E4.84573
G1 X226.320 Y53.550 E4.85889
G1 X226.570 Y53.610 E4.86521
G1 X227.330 Y53.850 E4.88478
G1 X228.060 Y54.170 E4.90435
G1 X228.520 Y54.440 E4.91744
G1 X229.160 Y54.900 E4.93680
G1 X229.560 Y55.260 E4.95001
G1 X230.100 Y55.840 E4.96947
G1 X230.560 Y56.480 E4.98882
G1 X230.830 Y56.940 E5.00192
G1 X231.050 Y57.420 E5.01488
G1 X231.240 Y57.920 E5.02802
G1 X231.450 Y58.680 E5.04738
G1 X231.560 Y59.470 E5.06696
G1 X231.580 Y60.000 E5.07998
G1 X231.580 Y240.000 E9.49970
G1 X231.560 Y240.530 E9.51272
G1 X231.530 Y240.790 E9.51915
G1 X231.450 Y241.320 E9.53231
G1 X231.390 Y241.570 E9.53862
G1 X231.150 Y242.330 E9.55819
G1 X230.830 Y243.060 E9.57777
G1 X230.560 Y243.520 E9.59086
G1 X230.100 Y244.160 E9.61021
G1 X229.740 Y244.560 E9.62343
G1 X229.160 Y245.100 E9.64289
G1 X228.520 Y245.560 E9.66224
G1 X228.060 Y245.830 E9.67534
G1 X227.580 Y246.050 E9.68830
G1 X227.080 Y246.240 E9.70143
G1 X226.320 Y246.450 E9.72079
G1 X225.530 Y246.560 E9.74038
G1 X225.000 Y246.580 E9.75340
G1 X75.000 Y246.580 E13.43650
G1 X74.470 Y246.560 E13.44952
G1 X74.210 Y246.530 E13.45595
G1 X73.680 Y246.450 E13.46911
G1 X73.430 Y246.390 E13.47542
G1 X72.670 Y246.150 E13.49499
G1 X71.940 Y245.830 E13.51456
G1 X71.480 Y245.560 E13.52766
G1 X70.840 Y245.100 E13.54701
G1 X70.440 Y244.740 E13.56023
G1 X69.900 Y244.160 E13.57969
G1 X69.440 Y243.520 E13.59904
G1 X69.170 Y243.060 E13.61213
G1 X68.950 Y242.580 E13.62510
G1 X68.760 Y242.080 E13.63823
G1 X68.550 Y241.320 E13.65759
G1 X68.440 Y240.530 E13.67718
G1 X68.420 Y240.000 E13.69020
G1 X68.420 Y60.000 E18.10992
G1 X68.440 Y59.470 E18.12294
G1 X68.550 Y58.680 E18.14253
G1 X68.760 Y57.920 E18.16189
G1 X68.950 Y57.420 E18.17502
G1 X69.170 Y56.940 E18.18799
G1 X69.440 Y56.480 E18.20108
G1 X69.847 Y55.909 E18.21830
G1 F1800.000 E17.21830
G92 E0
G1 X148.404 Y127.170 F7800.000
G1 F1800.000 E1.00000
G1 X163.894 Y123.020 F540.000 E1.39374
G1 X164.151 Y123.982 E1.41818
G1 X165.112 Y123.725 E1.44261
G1 X169.263 Y139.213 E1.83633
G1 X168.301 Y139.470 E1.86076
G1 X168.559 Y140.432 E1.88519
G1 X153.070 Y144.582 E2.27893
G1 X152.812 Y143.621 E2.30336
G1 X151.851 Y143.878 E2.32779
G1 X147.701 Y128.390 E2.72151
G1 X148.662 Y128.132 E2.74594
G1 X148.427 Y127.254 E2.76825
G1 X149.113 Y127.579 F7800.000
G1 X163.485 Y123.729 F378.000 E3.13358
G1 X163.742 Y124.690 E3.15801
G1 X164.703 Y124.433 E3.18244
G1 X168.554 Y138.804 E3.54775
G1 X167.593 Y139.061 E3.57218
G1 X167.850 Y140.022 E3.59661
G1 X153.479 Y143.873 E3.96194
G1 X153.221 Y142.912 E3.98637
G1 X152.260 Y143.170 E4.01080
G1 X148.409 Y128.799 E4.37612
G1 X149.371 Y128.541 E4.40055
G1 X149.135 Y127.663 E4.42285
G1 X148.963 Y127.021 F7800.000
G1 X196.247 Y78.625
G1 X194.950 Y63.803 F378.000 E4.78819
G1 X195.941 Y63.716 E4.81263
G1 X195.855 Y62.725 E4.83705
G1 X210.677 Y61.429 E5.20239
G1 X210.763 Y62.420 E5.22682
G1 X211.755 Y62.333 E5.25126
G1 X213.051 Y77.155 E5.61660
G1 X212.060 Y77.242 E5.64103
G1 X212.146 Y78.233 E5.66546
G1 X197.325 Y79.529 E6.03077
G1 X197.238 Y78.538 E6.05519
G1 X196.333 Y78.618 E6.07749
G1 X195.671 Y78.676 F7800.000
G1 X196.725 Y80.898
G1 X211.096 Y84.748 F378.000 E6.44281
G1 X210.839 Y85.710 E6.46724
G1 X211.800 Y85.968 E6.49167
G1 X207.949 Y100.339 E6.85701
G1 X206.988 Y100.081 E6.88144
G1 X206.731 Y101.042 E6.90587
G1 X192.359 Y97.192 E7.27119
G1 X192.617 Y96.230 E7.29562
G1 X191.656 Y95.972 E7.32006
G1 X195.506 Y81.602 E7.68536
G1 X196.468 Y81.859 E7.70979
G1 X196.703 Y80.982 E7.73209
G1 X196.875 Y80.339 F7800.000
G1 F1800.000 E6.73209
G92 E0
G1 X191.517 Y98.391 F7800.000
G1 F1800.000 E1.00000
G1 X204.652 Y107.589 F540.000 E1.39373
G1 X204.081 Y108.404 E1.41817
G1 X204.897 Y108.975 E1.44261
G1 X195.699 Y122.111 E1.83635
G1 X194.884 Y121.540 E1.86078
G1 X194.313 Y122.355 E1.88521
G1 X181.178 Y113.157 E2.27894
G1 X181.748 Y112.342 E2.30338
G1 X180.933 Y111.771 E2.32781
G1 X190.131 Y98.635 E2.72155
G1 X190.946 Y99.206 E2.74599
G1 X191.467 Y98.462 E2.76828
G1 X191.659 Y99.197 F7800.000
G1 X203.846 Y107.731 F378.000 E3.13361
G1 X203.276 Y108.546 E3.15804
G1 X204.091 Y109.117 E3.18248
G1 X195.557 Y121.305 E3.54781
G1 X194.742 Y120.734 E3.57224
G1 X194.171 Y121.549 E3.59667
G1 X181.983 Y113.015 E3.96199
G1 X182.554 Y112.200 E3.98643
G1 X181.739 Y111.629 E4.01086
G1 X190.273 Y99.441 E4.37619
G1 X191.088 Y100.012 E4.40063
G1 X191.609 Y99.268 E4.42292
G1 X191.991 Y98.723 F7800.000
G1 F1800.000 E3.42292
G92 E0
G1 X180.636 Y113.086 F7800.000
G1 F1800.000 E1.00000
G1 X189.833 Y126.222 F540.000 E1.39374
G1 X189.018 Y126.793 E1.41817
G1 X189.589 Y127.608 E1.44261
G1 X176.453 Y136.805 E1.83635
G1 X175.883 Y135.990 E1.86078
G1 X175.068 Y136.561 E1.88521
G1 X165.870 Y123.426 E2.27894
G1 X166.685 Y122.855 E2.30337
G1 X166.114 Y122.040 E2.32781
G1 X179.250 Y112.842 E2.72154
G1 X179.821 Y113.657 E2.74597
G1 X180.565 Y113.136 E2.76827
G1 X180.494 Y113.892 F7800.000
G1 X189.028 Y126.080 F378.000 E3.13360
G1 X188.213 Y126.651 E3.15804
G1 X188.783 Y127.466 E3.18247
G1 X176.596 Y136.000 E3.54780
G1 X176.025 Y135.185 E3.57223
G1 X175.210 Y135.755 E3.59666
G1 X166.676 Y123.568 E3.96198
G1 X167.491 Y122.997 E3.98641
G1 X166.920 Y122.182 E4.01084
G1 X179.108 Y113.648 E4.37617
G1 X179.679 Y114.463 E4.40060
G1 X180.423 Y113.942 E4.42290
G1 X180.968 Y113.560 F7800.000
G1 F1800.000 E3.42290
G92 E0
G1 X189.544 Y144.550 F7800.000
G1 F1800.000 E1.00000
G1 X189.802 Y145.511 F540.000 E1.02443
G1 X190.763 Y145.253 E1.04886
G1 X193.130 Y154.087 E1.27341
G1 X194.346 Y153.761 E1.30433
G1 X194.089 Y152.800 E1.32877
G1 X209.578 Y148.649 E1.72251
G1 X209.836 Y149.610 E1.74694
G1 X210.797 Y149.353 E1.77137
G1 X214.947 Y164.842 E2.16510
G1 X213.986 Y165.100 E2.18952
G1 X214.243 Y166.061 E2.21396
G1 X214.569 Y167.277 E2.24488
G1 X215.531 Y167.020 E2.26932
G1 X219.681 Y182.509 E2.66306
G1 X218.719 Y182.767 E2.68750
G1 X218.976 Y183.728 E2.71192
G1 X203.488 Y187.878 E3.10564
G1 X203.231 Y186.917 E3.13007
G1 X202.014 Y187.243 E3.16099
G1 X204.381 Y196.076 E3.38554
G1 X203.420 Y196.334 E3.40997
G1 X204.003 Y198.511 E3.46532
G1 X204.964 Y198.254 E3.48975
G1 X209.115 Y213.743 E3.88349
G1 X208.154 Y214.000 E3.90792
G1 X208.411 Y214.962 E3.93235
G1 X192.922 Y219.112 E4.32610
G1 X192.664 Y218.151 E4.35053
G1 X191.448 Y218.477 E4.38145
G1 X192.395 Y222.010 E4.47127
G1 X191.434 Y222.268 E4.49570
G1 X191.691 Y223.229 E4.52013
G1 X176.202 Y227.379 E4.91387
G1 X175.944 Y226.418 E4.93830
G1 X174.983 Y226.675 E4.96273
G1 X170.833 Y211.186 E5.35647
G1 X171.794 Y210.929 E5.38090
G1 X171.211 Y208.751 E5.43625
G1 X170.250 Y209.009 E5.46068
G1 X166.099 Y193.519 E5.85442
G1 X167.060 Y193.262 E5.87885
G1 X166.477 Y191.084 E5.93421
G1 X165.516 Y191.342 E5.95864
G1 X161.365 Y175.853 E6.35237
G1 X162.326 Y175.595 E6.37680
G1 X161.743 Y173.418 E6.43216
G1 X160.782 Y173.675 E6.45659
G1 X159.822 Y170.094 E6.54763
G1 X159.329 Y170.203 E6.56004
G1 X160.273 Y175.560 E6.69361
G1 X159.294 Y175.733 E6.71804
G1 X159.512 Y176.973 E6.74897
G1 X159.685 Y177.953 E6.77340
G1 X160.665 Y177.781 E6.79783
G1 X163.450 Y193.573 E7.19157
G1 X162.470 Y193.745 E7.21600
G1 X162.861 Y195.966 E7.27136
G1 X163.841 Y195.793 E7.29579
G1 X166.626 Y211.585 E7.68952
G1 X165.646 Y211.758 E7.71395
G1 X165.818 Y212.737 E7.73838
G1 X166.037 Y213.978 E7.76931
G1 X167.017 Y213.805 E7.79374
G1 X169.802 Y229.597 E8.18747
G1 X168.822 Y229.770 E8.21191
G1 X168.994 Y230.750 E8.23634
G1 X153.202 Y233.534 E8.63007
G1 X153.030 Y232.554 E8.65451
G1 X152.050 Y232.727 E8.67894
G1 X149.265 Y216.935 E9.07268
G1 X150.245 Y216.762 E9.09711
G1 X149.854 Y214.542 E9.15246
G1 X148.874 Y214.715 E9.17689
G1 X146.089 Y198.923 E9.57063
G1 X147.069 Y198.750 E9.59506
G1 X146.896 Y197.770 E9.61949
G1 X146.678 Y196.530 E9.65041
G1 X145.698 Y196.703 E9.67485
G1 X142.913 Y180.911 E10.06858
G1 X143.893 Y180.738 E10.09301
G1 X143.502 Y178.518 E10.14837
G1 X142.522 Y178.691 E10.17280
G1 X142.340 Y177.659 E10.19853
G1 X141.839 Y177.725 E10.21094
G1 X142.066 Y180.327 E10.27508
G1 X141.075 Y180.414 E10.29951
G1 X141.162 Y181.405 E10.32395
G1 X141.272 Y182.660 E10.35487
G1 X142.263 Y182.573 E10.37930
G1 X143.660 Y198.548 E10.77304
G1 X142.669 Y198.635 E10.79747
G1 X142.779 Y199.889 E10.82839
G1 X142.866 Y200.880 E10.85282
G1 X143.857 Y200.794 E10.87726
G1 X145.254 Y216.768 E11.27099
G1 X144.263 Y216.855 E11.29542
G1 X144.373 Y218.110 E11.32635
G1 X144.460 Y219.101 E11.35078
G1 X145.451 Y219.014 E11.37521
G1 X146.849 Y234.989 E11.76895
G1 X145.857 Y235.075 E11.79338
G1 X145.944 Y236.067 E11.81781
G1 X129.969 Y237.464 E12.21155
G1 X129.883 Y236.473 E12.23598
G1 X128.892 Y236.560 E12.26041
G1 X127.494 Y220.585 E12.65415
G1 X128.485 Y220.498 E12.67858
G1 X128.375 Y219.244 E12.70951
G1 X128.289 Y218.253 E12.73394
G1 X127.297 Y218.339 E12.75837
G1 X125.900 Y202.365 E13.15211
G1 X126.891 Y202.278 E13.17654
G1 X126.695 Y200.032 E13.23189
G1 X125.703 Y200.119 E13.25632
G1 X124.306 Y184.144 E13.65006
G1 X125.297 Y184.058 E13.67449
G1 X125.187 Y182.803 E13.70541
G1 X125.100 Y181.812 E13.72985
G1 X124.109 Y181.898 E13.75428
G1 X122.712 Y165.924 E14.14802
G1 X123.703 Y165.837 E14.17245
G1 X123.616 Y164.846 E14.19688
G1 X139.830 Y163.427 E14.59652
G1 X139.737 Y162.899 E14.60971
G1 X140.717 Y162.726 E14.63414
G1 X140.544 Y161.746 E14.65857
G1 X156.817 Y158.877 E15.06428
G1 X156.632 Y158.186 E15.08184
G1 X157.593 Y157.928 E15.10627
G1 X157.335 Y156.967 E15.13071
G1 X172.824 Y152.817 E15.52445
G1 X173.082 Y153.778 E15.54888
G1 X174.298 Y153.452 E15.57980
G1 X173.352 Y149.919 E15.66962
G1 X174.313 Y149.661 E15.69405
G1 X174.055 Y148.700 E15.71848
G1 X189.461 Y144.572 E16.11009
G1 X194.797 Y153.209 F7800.000
G1 X209.169 Y149.358 F378.000 E16.47542
G1 X209.427 Y150.319 E16.49985
G1 X210.388 Y150.062 E16.52428
G1 X214.238 Y164.433 E16.88961
G1 X213.277 Y164.691 E16.91403
G1 X213.535 Y165.652 E16.93846
G1 X199.163 Y169.503 E17.30380
G1 X198.906 Y168.541 E17.32824
G1 X197.945 Y168.799 E17.35267
G1 X194.094 Y154.427 E17.71799
G1 X195.055 Y154.170 E17.74242
G1 X194.820 Y153.293 E17.76473
G1 X194.648 Y152.650 F7800.000
G1 F1800.000 E16.76473
G92 E0
G1 X199.531 Y170.876 F7800.000
G1 F1800.000 E1.00000
G1 X213.902 Y167.025 F378.000 E1.36532
G1 X214.160 Y167.986 E1.38975
G1 X215.122 Y167.728 E1.41419
G1 X218.972 Y182.100 E1.77951
G1 X218.011 Y182.357 E1.80394
G1 X218.268 Y183.318 E1.82837
G1 X203.897 Y187.169 E2.19369
G1 X203.640 Y186.208 E2.21812
G1 X202.679 Y186.466 E2.24255
G1 X198.828 Y172.094 E2.60788
G1 X199.789 Y171.837 E2.63231
G1 X199.554 Y170.959 E2.65461
G1 X199.381 Y170.317 F7800.000
G1 F1800.000 E1.65461
G92 E0
G1 X203.337 Y198.259 F7800.000
G1 F1800.000 E1.00000
G1 X203.594 Y199.220 F378.000 E1.02443
G1 X204.555 Y198.962 E1.04886
G1 X208.406 Y213.334 E1.41419
G1 X207.445 Y213.591 E1.43862
G1 X207.703 Y214.552 E1.46305
G1 X193.331 Y218.403 E1.82838
G1 X193.074 Y217.442 E1.85282
G1 X192.112 Y217.700 E1.87725
G1 X188.262 Y203.328 E2.24257
G1 X189.223 Y203.071 E2.26700
G1 X188.965 Y202.110 E2.29144
G1 X203.253 Y198.281 E2.65463
G1 X203.896 Y198.109 F7800.000
G1 X202.969 Y196.886
G1 X188.597 Y200.736 F378.000 E3.01996
G1 X188.340 Y199.775 E3.04439
G1 X187.379 Y200.033 E3.06882
G1 X183.528 Y185.661 E3.43415
G1 X184.489 Y185.404 E3.45858
G1 X184.231 Y184.443 E3.48302
G1 X198.603 Y180.592 E3.84834
G1 X198.860 Y181.553 E3.87277
G1 X199.822 Y181.296 E3.89720
G1 X203.672 Y195.667 E4.26253
G1 X202.711 Y195.925 E4.28696
G1 X202.946 Y196.802 E4.30926
G1 X203.119 Y197.444 F7800.000
G1 F1800.000 E3.30926
G92 E0
G1 X198.235 Y179.219 F7800.000
G1 F1800.000 E1.00000
G1 X183.863 Y183.070 F378.000 E1.36533
G1 X183.606 Y182.109 E1.38976
G1 X182.645 Y182.366 E1.41419
G1 X178.794 Y167.995 E1.77952
G1 X179.755 Y167.737 E1.80395
G1 X179.498 Y166.776 E1.82838
G1 X193.869 Y162.925 E2.19371
G1 X194.127 Y163.886 E2.21814
G1 X195.088 Y163.629 E2.24257
G1 X198.939 Y178.000 E2.60790
G1 X197.978 Y178.258 E2.63233
G1 X198.213 Y179.135 E2.65463
G1 X198.385 Y179.778 F7800.000
G1 F1800.000 E1.65463
G92 E0
G1 X193.501 Y161.552 F7800.000
G1 F1800.000 E1.00000
G1 X179.130 Y165.403 F378.000 E1.36533
G1 X178.872 Y164.442 E1.38976
G1 X177.911 Y164.699 E1.41419
G1 X174.060 Y150.328 E1.77952
G1 X175.021 Y150.070 E1.80395
G1 X174.764 Y149.109 E1.82838
G1 X189.135 Y145.258 E2.19371
G1 X189.393 Y146.219 E2.21814
G1 X190.354 Y145.962 E2.24257
G1 X194.205 Y160.333 E2.60790
G1 X193.244 Y160.591 E2.63233
G1 X193.479 Y161.468 E2.65463
G1 X193.651 Y162.111 F7800.000
G1 F1800.000 E1.65463
G92 E0
G1 X177.485 Y168.601 F7800.000
G1 F1800.000 E1.00000
G1 X176.524 Y168.858 F378.000 E1.02443
G1 X176.781 Y169.819 E1.04886
G1 X162.410 Y173.670 E1.41419
G1 X162.152 Y172.709 E1.43862
G1 X161.191 Y172.967 E1.46305
G1 X157.340 Y158.595 E1.82838
G1 X158.301 Y158.337 E1.85281
G1 X158.044 Y157.376 E1.87724
G1 X172.415 Y153.526 E2.24257
G1 X172.673 Y154.487 E2.26700
G1 X173.634 Y154.229 E2.29143
G1 X177.462 Y168.517 E2.65463
G1 X177.635 Y169.159 F7800.000
G1 X177.149 Y171.192
G1 X177.407 Y172.153 F378.000 E2.67906
G1 X178.368 Y171.896 E2.70349
G1 X182.219 Y186.267 E3.06882
G1 X181.257 Y186.525 E3.09325
G1 X181.515 Y187.486 E3.11769
G1 X167.143 Y191.337 E3.48301
G1 X166.886 Y190.376 E3.50744
G1 X165.925 Y190.633 E3.53187
G1 X162.074 Y176.262 E3.89720
G1 X163.035 Y176.004 E3.92163
G1 X162.777 Y175.043 E3.94606
G1 X177.065 Y171.215 E4.30926
G1 X177.708 Y171.043 F7800.000
G1 F1800.000 E3.30926
G92 E0
G1 X181.883 Y188.859 F7800.000
G1 F1800.000 E1.00000
G1 X182.140 Y189.820 F378.000 E1.02443
G1 X183.102 Y189.563 E1.04886
G1 X186.952 Y203.934 E1.41419
G1 X185.991 Y204.192 E1.43862
G1 X186.249 Y205.153 E1.46305
G1 X171.877 Y209.004 E1.82838
G1 X171.620 Y208.043 E1.85281
G1 X170.659 Y208.300 E1.87724
G1 X166.808 Y193.929 E2.24257
G1 X167.769 Y193.671 E2.26700
G1 X167.511 Y192.710 E2.29143
G1 X181.799 Y188.881 E2.65463
G1 X182.442 Y188.709 F7800.000
G1 F1800.000 E1.65463
G92 E0
G1 X186.617 Y206.526 F7800.000
G1 F1800.000 E1.00000
G1 X186.874 Y207.487 F378.000 E1.02443
G1 X187.835 Y207.229 E1.04886
G1 X191.686 Y221.601 E1.41419
G1 X190.725 Y221.859 E1.43862
G1 X190.983 Y222.820 E1.46305
G1 X176.611 Y226.670 E1.82838
G1 X176.354 Y225.709 E1.85281
G1 X175.392 Y225.967 E1.87724
G1 X171.542 Y211.595 E2.24257
G1 X172.503 Y211.338 E2.26700
G1 X172.245 Y210.377 E2.29143
G1 X186.533 Y206.548 E2.65463
G1 X187.176 Y206.376 F7800.000
G1 F1800.000 E1.65463
G92 E0
G1 X144.925 Y219.641 F7800.000
G1 F1800.000 E1.00000
G1 X146.222 Y234.463 F378.000 E1.36533
G1 X145.231 Y234.549 E1.38976
G1 X145.317 Y235.541 E1.41419
G1 X130.495 Y236.837 E1.77952
G1 X130.409 Y235.846 E1.80395
G1 X129.417 Y235.933 E1.82838
G1 X128.121 Y221.111 E2.19371
G1 X129.112 Y221.024 E2.21814
G1 X129.025 Y220.033 E2.24257
G1 X143.847 Y218.736 E2.60790
G1 X143.934 Y219.728 E2.63233
G1 X144.839 Y219.648 E2.65463
G1 X145.501 Y219.590 F7800.000
G1 X150.213 Y218.979
G1 X149.935 Y217.404 F378.000 E2.69388
G1 X150.915 Y217.231 E2.71831
G1 X150.742 Y216.252 E2.74274
G1 X165.395 Y213.668 E3.10807
G1 X165.568 Y214.648 E3.13250
