; generated by Slic3r 0.9.9 on 2013-04-03 at 19:42:14

; layer_height = 0.3
; perimeters = 2
; top_solid_layers = 3
; bottom_solid_layers = 3
; fill_density = 0.2
; perimeter_speed = 70
; infill_speed = 100
; travel_speed = 110
; nozzle_diameter = 0.4
; filament_diameter = 3
; extrusion_multiplier = 1
; perimeters extrusion width = 0.42mm
; infill extrusion width = 0.42mm
; solid infill extrusion width = 0.42mm
; top infill extrusion width = 0.42mm

G21 ; set units to millimeters
M107
M190 S67 ; wait for bed temperature to be reached
M104 S185 ; set temperature

M109 S185 ; wait for temperature to be reached
G90 ; use absolute coordinates
G92 E0
M82 ; use absolute distances for extrusion
G1 F2700.000 E-0.85000
G92 E0
G1 Z0.300 F6600.000
G1 X69.930 Y56.060
G1 F2700.000 E0.85000
G1 X70.460 Y55.460 F840.000 E0.86423
G1 X70.850 Y55.100 E0.87367
G1 X71.060 Y54.930 E0.87847
G1 X71.490 Y54.630 E0.88779
G1 X71.940 Y54.350 E0.89721
G1 X72.180 Y54.230 E0.90198
G1 X72.920 Y53.930 E0.91618
G1 X73.680 Y53.720 E0.93020
G1 X74.470 Y53.600 E0.94440
G1 X75.000 Y53.580 E0.95383
G1 X225.000 Y53.580 E3.62050
G1 X225.530 Y53.600 E3.62993
G1 X226.320 Y53.720 E3.64413
G1 X227.080 Y53.930 E3.65815
G1 X227.820 Y54.230 E3.67235
G1 X228.290 Y54.490 E3.68190
G1 X228.940 Y54.930 E3.69585
G1 X229.540 Y55.460 E3.71008
G1 X229.900 Y55.850 E3.71952
G1 X230.220 Y56.270 E3.72890
G1 X230.650 Y56.940 E3.74306
G1 X230.980 Y57.670 E3.75730
G1 X231.220 Y58.420 E3.77130
G1 X231.330 Y58.940 E3.78075
G1 X231.400 Y59.470 E3.79025
G1 X231.420 Y60.000 E3.79968
G1 X231.420 Y240.000 E6.99968
G1 X231.400 Y240.530 E7.00911
G1 X231.280 Y241.320 E7.02332
G1 X231.070 Y242.080 E7.03733
G1 X230.770 Y242.820 E7.05153
G1 X230.510 Y243.290 E7.06108
G1 X230.070 Y243.940 E7.07503
G1 X229.540 Y244.540 E7.08926
G1 X229.150 Y244.900 E7.09870
G1 X228.730 Y245.220 E7.10809
G1 X228.060 Y245.650 E7.12224
G1 X227.330 Y245.980 E7.13648
G1 X226.580 Y246.220 E7.15048
G1 X226.060 Y246.330 E7.15993
G1 X225.530 Y246.400 E7.16943
G1 X225.000 Y246.420 E7.17886
G1 X75.000 Y246.420 E9.84553
G1 X74.470 Y246.400 E9.85496
G1 X73.680 Y246.280 E9.86916
G1 X72.920 Y246.070 E9.88318
G1 X72.180 Y245.770 E9.89738
G1 X71.710 Y245.510 E9.90693
G1 X71.060 Y245.070 E9.92088
G1 X70.460 Y244.540 E9.93511
G1 X70.100 Y244.150 E9.94455
G1 X69.780 Y243.730 E9.95393
G1 X69.350 Y243.060 E9.96809
G1 X69.020 Y242.330 E9.98233
G1 X68.780 Y241.580 E9.99633
G1 X68.670 Y241.060 E10.00578
G1 X68.600 Y240.530 E10.01528
G1 X68.580 Y240.000 E10.02471
G1 X68.580 Y60.000 E13.22471
G1 X68.600 Y59.470 E13.23414
G1 X68.670 Y58.940 E13.24364
G1 X68.780 Y58.420 E13.25309
G1 X68.930 Y57.920 E13.26237
G1 X69.120 Y57.420 E13.27188
G1 X69.350 Y56.940 E13.28135
G1 X69.630 Y56.490 E13.29077
G1 X69.893 Y56.111 E13.29897
G1 F2700.000 E12.44897
G92 E0
G1 X118.393 Y193.090 F6600.000
G1 F2700.000 E0.85000
G1 X119.300 Y193.798 F840.000 E0.87045
G1 X120.008 Y192.892 E0.89089
G1 X132.267 Y202.470 E1.16745
G1 X131.558 Y203.376 E1.18789
G1 X132.465 Y204.084 E1.20834
G1 X122.887 Y216.343 E1.48491
G1 X121.981 Y215.635 E1.50535
G1 X121.273 Y216.541 E1.52579
G1 X109.014 Y206.963 E1.80236
G1 X109.722 Y206.057 E1.82280
G1 X108.816 Y205.349 E1.84324
G1 X118.355 Y193.140 E2.11869
G1 X118.466 Y193.678 F6600.000
G1 X119.372 Y194.386 F630.000 E2.13914
G1 X120.080 Y193.480 E2.15958
G1 X131.679 Y202.542 E2.42125
G1 X130.970 Y203.448 E2.44169
G1 X131.877 Y204.156 E2.46214
G1 X122.815 Y215.755 E2.72381
G1 X121.909 Y215.047 E2.74426
G1 X121.201 Y215.953 E2.76470
G1 X109.602 Y206.891 E3.02637
G1 X110.310 Y205.985 E3.04681
G1 X109.404 Y205.277 E3.06725
G1 X118.427 Y193.728 E3.32781
G1 X118.723 Y193.348 F6600.000
G1 X94.695 Y222.310
G1 X94.654 Y223.459 F630.000 E3.34825
G1 X95.804 Y223.499 E3.36870
G1 X95.290 Y238.209 E3.63036
G1 X94.141 Y238.169 E3.65080
G1 X94.101 Y239.319 E3.67126
G1 X79.390 Y238.804 E3.93294
G1 X79.430 Y237.655 E3.95337
G1 X78.281 Y237.615 E3.97381
G1 X78.795 Y222.905 E4.23548
G1 X79.945 Y222.945 E4.25593
G1 X79.985 Y221.796 E4.27637
G1 X94.632 Y222.308 E4.53692
G1 X95.113 Y222.325 F6600.000
G1 X95.477 Y220.108
G1 X80.859 Y214.789 F840.000 E4.81347
G1 X81.252 Y213.708 E4.83392
G1 X80.172 Y213.315 E4.85436
G1 X85.492 Y198.696 E5.13093
G1 X86.572 Y199.089 E5.15136
G1 X86.965 Y198.009 E5.17179
G1 X101.585 Y203.329 E5.44836
G1 X101.191 Y204.410 E5.46880
G1 X102.272 Y204.804 E5.48925
G1 X96.951 Y219.421 E5.76579
G1 X95.870 Y219.028 E5.78624
G1 X95.499 Y220.049 E5.80555
G1 X95.227 Y219.571 F6600.000
G1 X81.396 Y214.538 F630.000 E6.06722
G1 X81.789 Y213.457 E6.08766
G1 X80.709 Y213.064 E6.10810
G1 X85.743 Y199.233 E6.36977
G1 X86.823 Y199.626 E6.39021
G1 X87.216 Y198.546 E6.41064
G1 X101.048 Y203.580 E6.67232
G1 X100.654 Y204.660 E6.69275
G1 X101.735 Y205.054 E6.71320
G1 X96.701 Y218.884 E6.97486
G1 X95.620 Y218.491 E6.99530
G1 X95.248 Y219.512 E7.01461
G1 X95.083 Y219.965 F6600.000
G1 F2700.000 E6.16461
G92 E0
G1 X102.472 Y201.728 F6600.000
G1 F2700.000 E0.85000
G1 X90.213 Y192.150 F840.000 E1.12656
G1 X90.921 Y191.244 E1.14700
G1 X90.015 Y190.536 E1.16745
G1 X99.592 Y178.277 E1.44401
G1 X100.499 Y178.985 E1.46446
G1 X101.207 Y178.079 E1.48490
G1 X113.465 Y187.657 E1.76146
G1 X112.758 Y188.563 E1.78191
G1 X113.664 Y189.271 E1.80235
G1 X104.086 Y201.530 E2.07892
G1 X103.180 Y200.822 E2.09936
G1 X102.510 Y201.678 E2.11869
G1 X102.400 Y201.140 F6600.000
G1 X90.801 Y192.078 F630.000 E2.38036
G1 X91.509 Y191.172 E2.40080
G1 X90.603 Y190.464 E2.42124
G1 X99.665 Y178.865 E2.68292
G1 X100.571 Y179.573 E2.70336
G1 X101.279 Y178.667 E2.72380
G1 X112.877 Y187.729 E2.98547
G1 X112.170 Y188.635 E3.00591
G1 X113.076 Y189.343 E3.02636
G1 X104.014 Y200.942 E3.28803
G1 X103.108 Y200.234 E3.30848
G1 X102.438 Y201.090 E3.32780
G1 X102.142 Y201.470 F6600.000
G1 F2700.000 E2.47780
G92 E0
G1 X114.804 Y186.408 F6600.000
G1 F2700.000 E0.85000
G1 X106.105 Y173.511 F840.000 E1.12656
G1 X107.058 Y172.868 E1.14700
G1 X106.415 Y171.916 E1.16744
G1 X119.312 Y163.216 E1.44400
G1 X119.955 Y164.169 E1.46445
G1 X120.909 Y163.526 E1.48489
G1 X129.608 Y176.424 E1.76146
G1 X128.655 Y177.066 E1.78190
G1 X129.298 Y178.019 E1.80234
G1 X116.401 Y186.719 E2.07891
G1 X115.757 Y185.765 E2.09937
G1 X114.856 Y186.373 E2.11869
G1 X114.917 Y185.827 F6600.000
G1 X106.687 Y173.624 F630.000 E2.38035
G1 X107.640 Y172.981 E2.40080
G1 X106.997 Y172.029 E2.42123
G1 X119.199 Y163.797 E2.68291
G1 X119.842 Y164.751 E2.70335
G1 X120.796 Y164.108 E2.72380
G1 X129.026 Y176.311 E2.98547
G1 X128.073 Y176.953 E3.00591
G1 X128.716 Y177.906 E3.02635
G1 X116.514 Y186.138 E3.28803
G1 X115.871 Y185.184 E3.30848
G1 X114.969 Y185.792 E3.32781
G1 X114.570 Y186.061 F6600.000
G1 F2700.000 E2.47781
G92 E0
G1 X131.267 Y175.649 F6600.000
G1 F2700.000 E0.85000
G1 X126.979 Y160.696 F840.000 E1.12654
G1 X128.084 Y160.379 E1.14699
G1 X127.767 Y159.273 E1.16743
G1 X142.721 Y154.985 E1.44400
G1 X143.038 Y156.091 E1.46444
G1 X144.144 Y155.774 E1.48489
G1 X148.432 Y170.728 E1.76145
G1 X147.326 Y171.045 E1.78189
G1 X147.643 Y172.150 E1.80233
G1 X132.689 Y176.438 E2.07889
G1 X132.372 Y175.333 E2.09934
G1 X131.327 Y175.631 E2.11867
G1 X131.554 Y175.131 F6600.000
G1 X127.497 Y160.983 F630.000 E2.38032
G1 X128.603 Y160.666 E2.40077
G1 X128.286 Y159.560 E2.42121
G1 X142.434 Y155.503 E2.68288
G1 X142.751 Y156.609 E2.70333
G1 X143.857 Y156.292 E2.72377
G1 X147.914 Y170.441 E2.98544
G1 X146.808 Y170.758 E3.00589
G1 X147.125 Y171.863 E3.02632
G1 X132.977 Y175.920 E3.28799
G1 X132.660 Y174.815 E3.30843
G1 X131.614 Y175.114 E3.32776
G1 X131.151 Y175.246 F6600.000
G1 F2700.000 E2.47776
G92 E0
G1 X184.440 Y86.662 F6600.000
G1 F2700.000 E0.85000
G1 X184.360 Y85.514 F840.000 E0.87044
G1 X183.212 Y85.595 E0.89089
G1 X182.127 Y70.076 E1.16745
G1 X183.275 Y69.996 E1.18790
G1 X183.194 Y68.848 E1.20834
G1 X198.713 Y67.763 E1.48490
G1 X198.793 Y68.911 E1.50535
G1 X199.940 Y68.830 E1.52579
G1 X201.026 Y84.349 E1.80235
G1 X199.878 Y84.429 E1.82280
G1 X199.959 Y85.576 E1.84324
G1 X184.503 Y86.657 E2.11869
G1 X184.829 Y86.215 F6600.000
G1 X184.748 Y85.067 F630.000 E2.13913
G1 X183.601 Y85.148 E2.15958
G1 X182.574 Y70.465 E2.42125
G1 X183.722 Y70.384 E2.44169
G1 X183.641 Y69.237 E2.46213
G1 X198.324 Y68.210 E2.72380
G1 X198.405 Y69.358 E2.74425
G1 X199.552 Y69.277 E2.76469
G1 X200.579 Y83.960 E3.02636
G1 X199.431 Y84.041 E3.04681
G1 X199.512 Y85.188 E3.06725
G1 X184.891 Y86.210 E3.32780
G1 X184.411 Y86.244 F6600.000
G1 X201.896 Y86.146
G1 X200.941 Y72.489 F840.000 E3.57117
G1 X202.089 Y72.409 E3.59162
G1 X202.008 Y71.262 E3.61206
G1 X217.527 Y70.177 E3.88862
G1 X217.607 Y71.324 E3.90907
G1 X218.755 Y71.244 E3.92951
G1 X219.840 Y86.762 E4.20607
G1 X218.693 Y86.843 E4.22652
G1 X218.773 Y87.990 E4.24696
G1 X203.254 Y89.075 E4.52352
G1 X203.174 Y87.928 E4.54397
G1 X202.027 Y88.008 E4.56441
G1 X201.901 Y86.208 E4.59649
G1 X202.314 Y86.116 F6600.000
G1 X201.389 Y72.878 F630.000 E4.83241
G1 X202.536 Y72.798 E4.85286
G1 X202.456 Y71.651 E4.87330
G1 X217.139 Y70.624 E5.13497
G1 X217.219 Y71.771 E5.15542
G1 X218.366 Y71.691 E5.17586
G1 X219.393 Y86.374 E5.43753
G1 X218.246 Y86.454 E5.45797
G1 X218.326 Y87.601 E5.47842
G1 X203.643 Y88.628 E5.74008
G1 X203.562 Y87.481 E5.76053
G1 X202.415 Y87.561 E5.78097
G1 X202.319 Y86.179 E5.80560
G1 X201.938 Y85.933 F6600.000
G1 X203.306 Y89.817
G1 X218.825 Y88.731 F840.000 E6.08216
G1 X218.905 Y89.879 E6.10261
G1 X220.052 Y89.798 E6.12305
G1 X221.137 Y105.317 E6.39961
G1 X219.990 Y105.397 E6.42006
G1 X220.070 Y106.545 E6.44050
G1 X204.552 Y107.630 E6.71707
G1 X204.471 Y106.483 E6.73751
G1 X203.324 Y106.563 E6.75795
G1 X202.239 Y91.044 E7.03452
G1 X203.386 Y90.964 E7.05496
G1 X203.310 Y89.879 E7.07429
G1 X203.753 Y90.205 F6600.000
G1 X218.436 Y89.179 F630.000 E7.33596
G1 X218.516 Y90.326 E7.35640
G1 X219.663 Y90.246 E7.37685
G1 X220.690 Y104.929 E7.63851
G1 X219.543 Y105.009 E7.65896
G1 X219.623 Y106.156 E7.67940
G1 X204.940 Y107.183 E7.94107
G1 X204.860 Y106.036 E7.96152
G1 X203.713 Y106.116 E7.98196
G1 X202.686 Y91.433 E8.24363
G1 X203.833 Y91.352 E8.26408
G1 X203.757 Y90.268 E8.28340
G1 X203.724 Y89.787 F6600.000
G1 F2700.000 E7.43340
G92 E0
G1 X204.603 Y108.371 F6600.000
G1 F2700.000 E0.85000
G1 X220.122 Y107.286 F840.000 E1.12656
G1 X220.202 Y108.433 E1.14701
G1 X221.350 Y108.353 E1.16745
G1 X222.435 Y123.872 E1.44401
G1 X221.288 Y123.952 E1.46446
G1 X221.368 Y125.099 E1.48490
G1 X205.849 Y126.185 E1.76147
G1 X205.769 Y125.037 E1.78191
G1 X204.622 Y125.118 E1.80236
G1 X203.536 Y109.599 E2.07892
G1 X204.684 Y109.519 E2.09936
G1 X204.608 Y108.434 E2.11869
G1 X205.050 Y108.760 F6600.000
G1 X219.734 Y107.733 F630.000 E2.38036
G1 X219.814 Y108.880 E2.40080
G1 X220.961 Y108.800 E2.42125
G1 X221.988 Y123.483 E2.68292
G1 X220.840 Y123.563 E2.70336
G1 X220.921 Y124.711 E2.72380
G1 X206.238 Y125.737 E2.98547
G1 X206.157 Y124.590 E3.00592
G1 X205.010 Y124.670 E3.02636
G1 X203.984 Y109.987 E3.28803
G1 X205.131 Y109.907 E3.30848
G1 X205.055 Y108.823 E3.32780
G1 X205.021 Y108.342 F6600.000
G1 F2700.000 E2.47780
G92 E0
G1 X205.901 Y126.926 F6600.000
G1 F2700.000 E0.85000
G1 X221.420 Y125.841 F840.000 E1.12656
G1 X221.500 Y126.988 E1.14701
G1 X222.647 Y126.908 E1.16745
G1 X223.732 Y142.427 E1.44401
G1 X222.585 Y142.507 E1.46446
G1 X222.665 Y143.654 E1.48490
G1 X207.147 Y144.739 E1.76146
G1 X207.066 Y143.592 E1.78191
G1 X205.919 Y143.672 E1.80235
G1 X204.834 Y128.153 E2.07892
G1 X205.981 Y128.073 E2.09936
G1 X205.905 Y126.989 E2.11869
G1 X206.348 Y127.315 F6600.000
G1 X221.031 Y126.288 F630.000 E2.38036
G1 X221.111 Y127.435 E2.40080
G1 X222.258 Y127.355 E2.42125
G1 X223.285 Y142.038 E2.68291
G1 X222.138 Y142.118 E2.70336
G1 X222.218 Y143.265 E2.72380
G1 X207.535 Y144.292 E2.98547
G1 X207.455 Y143.145 E3.00591
G1 X206.308 Y143.225 E3.02636
G1 X205.281 Y128.542 E3.28803
G1 X206.428 Y128.462 E3.30847
G1 X206.352 Y127.377 E3.32780
G1 X206.319 Y126.897 F6600.000
G1 X203.833 Y124.494
G1 X204.918 Y140.013 F840.000 E3.60436
G1 X203.771 Y140.093 E3.62481
G1 X203.851 Y141.241 E3.64525
G1 X188.332 Y142.326 E3.92181
G1 X188.252 Y141.179 E3.94226
G1 X187.105 Y141.259 E3.96270
G1 X186.020 Y125.740 E4.23927
G1 X187.167 Y125.660 E4.25971
G1 X187.087 Y124.513 E4.28016
G1 X202.605 Y123.427 E4.55672
G1 X202.686 Y124.575 E4.57716
G1 X203.770 Y124.499 E4.59649
G1 X203.444 Y124.941 F6600.000
G1 X204.471 Y139.625 F630.000 E4.85816
G1 X203.324 Y139.705 E4.87860
G1 X203.404 Y140.852 E4.89905
G1 X188.721 Y141.879 E5.16072
G1 X188.641 Y140.731 E5.18116
G1 X187.494 Y140.812 E5.20161
G1 X186.467 Y126.129 E5.46328
G1 X187.614 Y126.048 E5.48372
G1 X187.534 Y124.901 E5.50416
G1 X202.217 Y123.874 E5.76583
G1 X202.297 Y125.022 E5.78628
G1 X203.382 Y124.946 E5.80561
G1 X203.862 Y124.912 F6600.000
G1 X202.554 Y122.686
G1 X187.035 Y123.771 F840.000 E6.08217
G1 X186.955 Y122.624 E6.10261
G1 X185.807 Y122.704 E6.12306
G1 X184.722 Y107.185 E6.39962
G1 X185.869 Y107.105 E6.42006
G1 X185.789 Y105.958 E6.44051
G1 X201.308 Y104.873 E6.71707
G1 X201.388 Y106.020 E6.73751
G1 X202.535 Y105.940 E6.75796
G1 X203.621 Y121.458 E7.03452
G1 X202.473 Y121.539 E7.05497
G1 X202.549 Y122.623 E7.07429
G1 X202.107 Y122.297 F6600.000
G1 X187.423 Y123.324 F630.000 E7.33596
G1 X187.343 Y122.177 E7.35641
G1 X186.196 Y122.257 E7.37685
G1 X185.169 Y107.574 E7.63852
G1 X186.317 Y107.494 E7.65896
G1 X186.236 Y106.346 E7.67941
G1 X200.919 Y105.320 E7.94108
G1 X201.000 Y106.467 E7.96152
G1 X202.147 Y106.387 E7.98197
G1 X203.174 Y121.070 E8.24364
G1 X202.026 Y121.150 E8.26408
G1 X202.102 Y122.235 E8.28341
G1 X202.136 Y122.715 F6600.000
G1 F2700.000 E7.43341
G92 E0
G1 X201.256 Y104.131 F6600.000
G1 F2700.000 E0.85000
G1 X185.737 Y105.216 F840.000 E1.12656
G1 X185.657 Y104.069 E1.14701
G1 X184.510 Y104.149 E1.16745
G1 X183.425 Y88.631 E1.44401
G1 X184.572 Y88.550 E1.46446
G1 X184.492 Y87.403 E1.48490
G1 X200.010 Y86.318 E1.76146
G1 X200.091 Y87.465 E1.78191
G1 X201.238 Y87.385 E1.80235
G1 X202.323 Y102.904 E2.07892
G1 X201.176 Y102.984 E2.09936
G1 X201.252 Y104.068 E2.11869
G1 X200.809 Y103.743 F6600.000
G1 X186.126 Y104.769 F630.000 E2.38036
G1 X186.046 Y103.622 E2.40080
G1 X184.899 Y103.702 E2.42125
G1 X183.872 Y89.019 E2.68291
G1 X185.019 Y88.939 E2.70336
G1 X184.939 Y87.792 E2.72380
G1 X199.622 Y86.765 E2.98547
G1 X199.702 Y87.912 E3.00592
G1 X200.849 Y87.832 E3.02636
G1 X201.876 Y102.515 E3.28803
G1 X200.729 Y102.595 E3.30848
G1 X200.805 Y103.680 E3.32780
G1 X200.838 Y104.160 F6600.000
G1 F2700.000 E2.47780
G92 E0
G1 X153.270 Y97.484 F6600.000
G1 F2700.000 E0.85000
G1 X152.138 Y97.684 F840.000 E0.87044
G1 X152.337 Y98.817 E0.89089
G1 X137.017 Y101.518 E1.16745
G1 X136.817 Y100.385 E1.18790
G1 X135.685 Y100.585 E1.20834
G1 X132.984 Y85.265 E1.48490
G1 X134.116 Y85.065 E1.50535
G1 X133.916 Y83.933 E1.52579
G1 X149.237 Y81.231 E1.80235
G1 X149.436 Y82.364 E1.82280
G1 X150.569 Y82.164 E1.84324
G1 X153.259 Y97.422 E2.11869
G1 X152.785 Y97.144 F6600.000
G1 X151.652 Y97.344 F630.000 E2.13913
G1 X151.852 Y98.477 E2.15958
G1 X137.357 Y101.033 E2.42125
G1 X137.157 Y99.900 E2.44169
G1 X136.025 Y100.100 E2.46213
G1 X133.469 Y85.605 E2.72380
G1 X134.601 Y85.405 E2.74425
G1 X134.402 Y84.272 E2.76469
G1 X148.897 Y81.716 E3.02636
G1 X149.096 Y82.849 E3.04680
G1 X150.229 Y82.649 E3.06725
G1 X152.774 Y97.083 E3.32780
G1 X152.858 Y97.557 F6600.000
G1 F2700.000 E2.47780
G92 E0
G1 X149.107 Y80.499 F6600.000
G1 F2700.000 E0.85000
G1 X133.787 Y83.200 F840.000 E1.12656
G1 X133.588 Y82.068 E1.14701
G1 X132.455 Y82.268 E1.16745
G1 X129.754 Y66.947 E1.44401
G1 X130.886 Y66.748 E1.46446
G1 X130.686 Y65.615 E1.48490
G1 X146.007 Y62.914 E1.76146
G1 X146.206 Y64.046 E1.78191
G1 X147.339 Y63.847 E1.80235
G1 X150.040 Y79.167 E2.07891
G1 X148.908 Y79.367 E2.09936
G1 X149.097 Y80.437 E2.11869
G1 X148.622 Y80.159 F6600.000
G1 X134.127 Y82.715 F630.000 E2.38036
G1 X133.927 Y81.583 E2.40080
G1 X132.795 Y81.782 E2.42124
G1 X130.239 Y67.287 E2.68291
G1 X131.371 Y67.087 E2.70336
G1 X131.172 Y65.955 E2.72380
G1 X145.667 Y63.399 E2.98547
G1 X145.867 Y64.532 E3.00592
G1 X146.999 Y64.332 E3.02636
G1 X149.555 Y78.827 E3.28803
G1 X148.423 Y79.027 E3.30847
G1 X148.611 Y80.097 E3.32780
G1 X148.695 Y80.572 F6600.000
